; HEADER_BLOCK_START
; generated by Creality_Print V6.0.1.1375 on 2025-01-17 at 04:13:28
; total layer number: 32
; filament_density: 1.24
; filament_diameter: 1.75
; max_z_height: 6.40
; HEADER_BLOCK_END

; THUMBNAIL_BLOCK_START

;
; THUMBNAIL_BLOCK_END

; THUMBNAIL_BLOCK_START

;
; THUMBNAIL_BLOCK_END

; external perimeters extrusion width = 0.42mm
; perimeters extrusion width = 0.45mm
; infill extrusion width = 0.45mm
; solid infill extrusion width = 0.42mm
; top infill extrusion width = 0.42mm
; support material extrusion width = 0.42mm
; first layer extrusion width = 0.50mm

; EXECUTABLE_BLOCK_START
EXCLUDE_OBJECT_DEFINE NAME=Ground_v1.stl_id_0_copy_0 CENTER=110,110 POLYGON=[[100.475,105.235],[100.496,104.599],[100.56,103.965],[100.666,103.338],[100.813,102.718],[101.002,102.11],[101.231,101.516],[101.499,100.939],[101.805,100.381],[102.147,99.8442],[102.525,99.3317],[102.936,98.8456],[103.378,98.388],[103.85,97.9611],[104.35,97.5665],[104.875,97.2063],[105.422,96.8819],[105.991,96.5948],[106.577,96.3463],[107.178,96.1375],[107.792,95.9693],[108.416,95.8425],[109.047,95.7577],[109.682,95.7152],[110.318,95.7152],[110.953,95.7577],[111.584,95.8425],[112.208,95.9693],[112.822,96.1375],[113.423,96.3463],[114.009,96.5948],[114.578,96.8819],[115.125,97.2063],[115.65,97.5665],[116.15,97.9611],[116.622,98.388],[117.064,98.8456],[117.475,99.3317],[117.853,99.8442],[118.195,100.381],[118.501,100.939],[118.769,101.516],[118.998,102.11],[119.187,102.718],[119.334,103.338],[119.44,103.965],[119.504,104.599],[119.525,105.235],[119.525,124.285],[100.475,124.285],[100.475,105.235]]
M73 P0 R4
M106 S0
M106 P2 S0
;TYPE:Custom
M140 S0
M104 S0 
START_PRINT EXTRUDER_TEMP=220 BED_TEMP=50
T0
M204 S2000
G1 Z3 F600
M83
G92 E0
G1 Z1 F600
G90
G21
M83 ; use relative distances for extrusion
G1 E-.8 F2400
M106 S0
;LAYER_CHANGE
;Z:0.2
;HEIGHT:0.2
;BEFORE_LAYER_CHANGE
;0.2
G92 E0

;AFTER_LAYER_CHANGE
;0.2
;_SET_FAN_SPEED_CHANGING_LAYER
SET_VELOCITY_LIMIT ACCEL=1000 ACCEL_TO_DECEL=1000
SET_VELOCITY_LIMIT SQUARE_CORNER_VELOCITY=20
; printing object Ground v1.stl id:0 copy 0
EXCLUDE_OBJECT_START NAME=Ground_v1.stl_id_0_copy_0
G1 Z.4 F30000
G1 X118.168 Y123.428
G1 Z.2
G1 E.8 F2400
;TYPE:Inner wall
;WIDTH:0.499999
G1 F3600
G1 X101.332 Y123.428 E.60787
G1 X101.332 Y106.09 E.62598
G3 X101.418 Y104.029 I14.377 J-.43 E.07455
G3 X118.668 Y105.275 I8.582 J1.212 E.94044
G1 X118.668 Y123.428 E.65543
M73 P1 R4
G1 X118.208 Y123.428 E.01661
M73 P1 R4
G1 E-.56 F2400
;WIPE_START
G1 F3600
G1 X116.208 Y123.428 E-.24
;WIPE_END
G1 X119.125 Y123.885 Z.6 F30000
G1 Z.2
G1 E.8 F2400
;TYPE:Outer wall
G1 F3600
G1 X100.875 Y123.885 E.65893
G1 X100.875 Y106.09 E.64248
G3 X100.968 Y103.953 I14.78 J-.43 E.07731
G3 X119.125 Y105.275 I9.033 J1.288 E.9895
G1 X119.125 Y123.845 E.67049
G1 E-.56 F2400
;WIPE_START
G1 F3600
G1 X117.125 Y123.849 E-.24
;WIPE_END
G1 X114.599 Y116.647 Z.6 F30000
G1 X108.69 Y99.801 Z.6
G1 Z.2
G1 E.8 F2400
;TYPE:Inner wall
G1 F3600
G1 X109.206 Y99.671 E.01922
G1 X109.835 Y99.639 E.02271
G1 X110.332 Y99.628 E.01797
G1 X111.261 Y99.761 E.03387
G3 X112.393 Y100.153 I-3.368 J11.563 E.04326
G1 X113.205 Y100.622 E.03387
G3 X114.02 Y101.312 I-13.851 J17.191 E.03856
G3 X114.729 Y102.198 I-15.802 J13.359 E.04099
G3 X115.239 Y103.208 I-17.877 J9.661 E.04084
G1 X115.503 Y104.108 E.03387
G3 X115.617 Y105.3 I-12.697 J1.814 E.04326
M73 P2 R4
G1 X115.528 Y106.234 E.03387
M73 P2 R4
G1 X115.239 Y107.262 E.03856
G1 X114.76 Y108.217 E.03856
G1 X114.11 Y109.064 E.03856
G1 X113.311 Y109.772 E.03856
G1 X112.393 Y110.317 E.03855
G1 X111.388 Y110.678 E.03856
G1 X110.332 Y110.842 E.03856
G1 X109.265 Y110.804 E.03856
G1 X108.225 Y110.564 E.03856
G1 X107.248 Y110.132 E.03856
G1 X106.371 Y109.522 E.03856
G1 X105.625 Y108.758 E.03856
G1 X105.038 Y107.866 E.03856
G1 X104.629 Y106.88 E.03856
G1 X104.415 Y105.834 E.03856
G3 X104.403 Y104.763 I24.117 J-.814 E.03865
G3 X104.629 Y103.59 I14.288 J2.151 E.04316
G1 X104.978 Y102.719 E.03387
G3 X105.625 Y101.712 I10.897 J6.291 E.04326
G1 X106.273 Y101.033 E.03387
G1 X107.047 Y100.466 E.03466
G3 X108.101 Y99.948 I5.744 J10.37 E.04241
G1 X108.651 Y99.811 E.02047
G1 X108.314 Y100.358 F30000
;TYPE:Outer wall
G1 F3600
G1 X108.816 Y100.233 E.01868
G3 X109.38 Y100.118 I2.721 J11.965 E.02078
G1 X110.423 Y100.102 E.03764
G1 X111.196 Y100.214 E.02821
G3 X112.164 Y100.549 I-7.518 J23.289 E.03699
G1 X112.976 Y101.018 E.03387
G1 X113.661 Y101.606 E.03258
G3 X114.344 Y102.444 I-11.377 J9.954 E.03905
G3 X114.834 Y103.454 I-10.008 J5.491 E.04055
G1 X115.064 Y104.237 E.02945
G3 X115.162 Y105.257 I-26.647 J3.059 E.037
G1 X115.072 Y106.19 E.03387
G1 X114.8 Y107.133 E.03543
G1 X114.354 Y108.007 E.03543
G1 X113.751 Y108.781 E.03543
G1 X113.012 Y109.427 E.03544
G1 X112.164 Y109.921 E.03543
G1 X111.238 Y110.246 E.03543
G1 X110.267 Y110.39 E.03543
G1 X109.287 Y110.347 E.03543
G1 X108.332 Y110.12 E.03543
G1 X107.438 Y109.716 E.03543
G1 X106.636 Y109.15 E.03543
G1 X105.956 Y108.443 E.03543
G1 X105.422 Y107.619 E.03543
G1 X105.054 Y106.71 E.03543
G1 X104.864 Y105.747 E.03543
G1 X104.86 Y104.766 E.03543
G3 X105.105 Y103.632 I9.633 J1.489 E.04192
G1 X105.402 Y102.889 E.02889
G3 X105.956 Y102.027 I22.222 J13.673 E.037
G1 X106.603 Y101.348 E.03387
G1 X107.313 Y100.838 E.03154
G3 X108.276 Y100.371 I6.042 J11.23 E.03869
G1 E-.56 F2400
;WIPE_START
G1 F3600
G1 X108.816 Y100.233 E-.06685
G1 X109.38 Y100.118 E-.06905
G1 X110.247 Y100.105 E-.1041
;WIPE_END
G1 X117.199 Y100.668 Z.6 F30000
G1 Z.2
G1 E.8 F2400
;TYPE:Bottom surface
;WIDTH:0.507052
G1 F3600
G1 X115.736 Y99.204 E.07589
G2 X113.614 Y97.74 I-5.829 J6.173 E.09488
G1 X117.494 Y101.62 E.20118
G3 X117.927 Y102.709 I-7.707 J3.695 E.04302
G1 X112.522 Y97.303 E.28028
G2 X111.64 Y97.078 I-2.882 J9.449 E.03336
G1 X118.161 Y103.599 E.33812
G3 X118.275 Y104.369 I-5.692 J1.23 E.02854
G1 X110.862 Y96.957 E.38433
G1 X110.166 Y96.917 E.02556
G1 X118.319 Y105.07 E.42271
G3 X118.325 Y105.732 I-9.906 J.424 E.0243
G1 X115.453 Y102.861 E.1489
G1 X115.018 Y102.013 E.03492
G1 X114.311 Y101.115 E.04191
G1 X113.446 Y100.368 E.04191
G1 X112.454 Y99.8 E.0419
G1 X112.362 Y99.769 E.00358
G1 X109.521 Y96.928 E.14727
M73 P3 R4
G2 X108.922 Y96.985 I.124 J4.508 E.0221
M73 P3 R4
G1 X111.37 Y99.434 E.12695
G1 X110.608 Y99.328 E.02819
G1 X108.359 Y97.079 E.11665
G2 X107.827 Y97.204 I.669 J4.031 E.02002
G1 X109.917 Y99.294 E.10836
G1 X109.292 Y99.325 E.02295
G1 X107.324 Y97.357 E.10202
G2 X106.846 Y97.535 I1.113 J3.717 E.01872
G1 X108.743 Y99.432 E.09835
G1 X108.215 Y99.56 E.01994
G1 X106.391 Y97.737 E.09454
G2 X105.958 Y97.959 I1.447 J3.35 E.01789
G1 X107.74 Y99.741 E.0924
G1 X107.289 Y99.948 E.01815
G1 X105.545 Y98.204 E.09043
G2 X105.155 Y98.469 I1.791 J3.052 E.01733
G1 X106.864 Y100.179 E.08863
G1 X106.48 Y100.451 E.01726
G1 X104.783 Y98.754 E.08797
G2 X104.429 Y99.056 I2.113 J2.84 E.01708
G1 X106.101 Y100.729 E.08674
G2 X105.776 Y101.06 I1.454 J1.752 E.01705
G1 X104.092 Y99.376 E.08732
G2 X103.773 Y99.713 I2.361 J2.55 E.01704
G1 X105.458 Y101.398 E.08736
G2 X105.17 Y101.766 I.857 J.97 E.01723
G1 X103.473 Y100.069 E.08799
G2 X103.194 Y100.447 I2.685 J2.275 E.01722
G1 X104.912 Y102.165 E.0891
G2 X104.667 Y102.576 I1.988 J1.465 E.01758
G1 X102.933 Y100.843 E.08989
G2 X102.692 Y101.258 I2.936 J1.979 E.01762
G1 X104.48 Y103.045 E.09266
G1 X104.293 Y103.515 E.01853
G1 X102.471 Y101.693 E.09445
G2 X102.272 Y102.151 I3.316 J1.716 E.0183
G1 X104.18 Y104.058 E.0989
G2 X104.077 Y104.612 I3.714 J.973 E.02067
G1 X102.097 Y102.632 E.10269
G2 X101.947 Y103.138 I3.767 J1.391 E.01938
G1 X104.06 Y105.251 E.10955
G2 X104.085 Y105.933 I2.978 J.231 E.02506
G1 X101.826 Y103.674 E.11713
G2 X101.738 Y104.242 I4.202 J.941 E.0211
G1 X104.552 Y107.056 E.1459
G1 E-.56 F2400
;WIPE_START
G1 F3600
G1 X103.138 Y105.642 E-.24
;WIPE_END
G1 X110.662 Y104.358 Z.6 F30000
G1 X115.474 Y103.537 Z.6
G1 Z.2
G1 E.8 F2400
G1 F3600
G1 X118.325 Y106.389 E.14785
M73 P4 R4
G1 X118.325 Y107.045 E.02406
M73 P4 R4
G1 X115.905 Y104.625 E.12548
G1 X115.963 Y105.252 E.02307
G1 X115.955 Y105.332 E.00295
G1 X118.325 Y107.701 E.12287
G1 X118.325 Y108.358 E.02406
G1 X115.898 Y105.931 E.12584
G1 X115.858 Y106.348 E.01537
G1 X115.814 Y106.503 E.0059
G1 X118.325 Y109.014 E.13022
G1 X118.325 Y109.671 E.02406
G1 X115.667 Y107.012 E.13782
G3 X115.508 Y107.509 I-2.539 J-.54 E.01917
G1 X118.325 Y110.327 E.14609
G1 X118.325 Y110.983 E.02406
G1 X115.286 Y107.944 E.15756
G1 X115.063 Y108.378 E.01786
G1 X118.325 Y111.64 E.16914
G1 X118.325 Y112.296 E.02406
G1 X114.787 Y108.758 E.18347
G1 X114.498 Y109.125 E.01714
G1 X118.325 Y112.952 E.19845
G1 X118.325 Y113.609 E.02406
G1 X114.185 Y109.469 E.21467
G1 X113.833 Y109.773 E.01706
G1 X118.325 Y114.265 E.2329
G1 X118.325 Y114.922 E.02406
G1 X113.477 Y110.074 E.25137
G3 X113.069 Y110.322 I-1.505 J-2.011 E.01754
G1 X118.325 Y115.578 E.27252
G1 X118.325 Y116.234 E.02406
G1 X112.653 Y110.562 E.29409
G3 X112.195 Y110.761 I-1.072 J-1.843 E.01834
G1 X118.325 Y116.891 E.31783
G1 X118.325 Y117.547 E.02406
G1 X111.708 Y110.93 E.34311
G3 X111.186 Y111.064 I-.765 J-1.885 E.01981
G1 X118.325 Y118.204 E.37016
G1 X118.325 Y118.86 E.02406
G1 X110.608 Y111.142 E.40014
M73 P5 R4
G3 X109.988 Y111.179 I-.406 J-1.616 E.02291
M73 P5 R4
G1 X118.325 Y119.516 E.43229
G1 X118.325 Y120.173 E.02406
G1 X109.294 Y111.142 E.46824
G1 X109.123 Y111.133 E.00628
G1 X108.472 Y110.976 E.02455
G1 X118.325 Y120.829 E.51087
G1 X118.325 Y121.485 E.02406
G1 X107.432 Y110.593 E.56479
G3 X106.941 Y110.349 I1.031 J-2.695 E.02014
G1 X106.168 Y109.798 E.03479
G1 X106.028 Y109.677 E.00677
G1 X105.373 Y108.991 E.03479
G1 X105.259 Y108.846 E.00677
G1 X104.746 Y108.047 E.03479
G3 X104.621 Y107.781 I1.331 J-.79 E.0108
G1 X101.688 Y104.849 E.15204
G2 X101.675 Y105.492 I9.607 J.524 E.02358
G1 X118.325 Y122.142 E.86331
G1 X118.325 Y122.798 E.02406
G1 X101.675 Y106.148 E.86331
G1 X101.675 Y106.804 E.02406
G1 X117.955 Y123.085 E.84414
M73 P6 R4
G1 X117.299 Y123.085 E.02406
M73 P6 R4
G1 X101.675 Y107.461 E.81011
G1 X101.675 Y108.117 E.02406
G1 X116.643 Y123.085 E.77607
G1 X115.986 Y123.085 E.02406
G1 X101.675 Y108.774 E.74204
G1 X101.675 Y109.43 E.02406
G1 X115.33 Y123.085 E.70801
G1 X114.674 Y123.085 E.02406
G1 X101.675 Y110.086 E.67397
G1 X101.675 Y110.743 E.02406
G1 X114.017 Y123.085 E.63994
G1 X113.361 Y123.085 E.02406
G1 X101.675 Y111.399 E.60591
M73 P7 R4
G1 X101.675 Y112.055 E.02406
M73 P7 R4
G1 X112.704 Y123.085 E.57188
G1 X112.048 Y123.085 E.02406
G1 X101.675 Y112.712 E.53784
G1 X101.675 Y113.368 E.02406
G1 X111.392 Y123.085 E.50381
G1 X110.735 Y123.085 E.02406
G1 X101.675 Y114.025 E.46978
G1 X101.675 Y114.681 E.02406
G1 X110.079 Y123.085 E.43574
G1 X109.423 Y123.085 E.02406
G1 X101.675 Y115.337 E.40171
G1 X101.675 Y115.994 E.02406
G1 X108.766 Y123.085 E.36768
G1 X108.11 Y123.085 E.02406
G1 X101.675 Y116.65 E.33364
G1 X101.675 Y117.306 E.02406
G1 X107.453 Y123.085 E.29961
G1 X106.797 Y123.085 E.02406
G1 X101.675 Y117.963 E.26558
G1 X101.675 Y118.619 E.02406
G1 X106.141 Y123.085 E.23155
G1 X105.484 Y123.085 E.02406
M73 P8 R4
G1 X101.675 Y119.276 E.19751
M73 P8 R4
G1 X101.675 Y119.932 E.02406
G1 X104.828 Y123.085 E.16348
G1 X104.171 Y123.085 E.02407
G1 X101.675 Y120.588 E.12945
G1 X101.675 Y121.245 E.02406
G1 X103.515 Y123.085 E.09541
M73 P8 R3
G1 X102.859 Y123.085 E.02406
M73 P8 R3
G1 X101.675 Y121.901 E.06138
G1 X101.675 Y122.558 E.02406
G1 X102.408 Y123.291 E.03801
G1 E-.56 F2400
;WIPE_START
G1 F3600
G1 X101.675 Y122.558 E-.12441
G1 X101.675 Y121.901 E-.07877
G1 X101.892 Y122.118 E-.03682
;WIPE_END
G1 X105.138 Y115.21 Z.6 F30000
G1 X113.389 Y97.655 Z.6
G1 Z.2
G1 E.8 F2400
;TYPE:Gap infill
;WIDTH:0.244003
G1 F3600
G1 X113.233 Y97.55 E.00298
;WIDTH:0.200927
G1 X113.078 Y97.445 E.00234
;WIDTH:0.179388
G1 X112.922 Y97.34 E.00202
G1 E-.56 F2400
;WIPE_START
G1 F3600
G1 X113.078 Y97.445 E-.24
;WIPE_END
G1 X117.311 Y101.074 Z.6 F30000
G1 Z.2
G1 E.8 F2400
;WIDTH:0.114683
G1 F3600
G1 X117.223 Y100.957 E.00083
;WIDTH:0.131597
G1 X117.084 Y100.784 E.00155
G1 E-.56 F2400
;WIPE_START
G1 F3600
G1 X117.223 Y100.957 E-.24
;WIPE_END
G1 X117.641 Y108.578 Z.6 F30000
G1 X118.439 Y123.127 Z.6
G1 Z.2
G1 E.8 F2400
;WIDTH:0.17357
G1 F3600
G1 X118.256 Y123.135 E.0019
;WIDTH:0.15924
G1 X118.239 Y123.09 E.00044
;WIDTH:0.146569
G1 X118.223 Y123.045 E.00039
G1 E-.56 F2400
;WIPE_START
G1 F3600
G1 X118.239 Y123.09 E-.24
;WIPE_END
G1 X113.391 Y117.196 Z.6 F30000
G1 X108.234 Y110.926 Z.6
G1 Z.2
G1 E.8 F2400
;WIDTH:0.123973
G1 F3600
G3 X107.909 Y110.71 I4.367 J-6.888 E.0025
G1 X108.24 Y110.916 F30000
;WIDTH:0.210445
G1 F3600
G3 X107.903 Y110.719 I3.911 J-7.083 E.00516
; stop printing object Ground v1.stl id:0 copy 0
;TIME_ELAPSED:22.969671

M106 S255
;LAYER_CHANGE
;Z:0.4
;HEIGHT:0.2
;BEFORE_LAYER_CHANGE
;0.4
G92 E0

G1 E-.56 F2400
;WIPE_START
G1 F3600
G1 X108.24 Y110.916 E-.24
;WIPE_END
EXCLUDE_OBJECT_END NAME=Ground_v1.stl_id_0_copy_0
;AFTER_LAYER_CHANGE
;0.4
;_SET_FAN_SPEED_CHANGING_LAYER
SET_VELOCITY_LIMIT ACCEL=10000 ACCEL_TO_DECEL=10000
M140 S50 ; set bed temperature
; printing object Ground v1.stl id:0 copy 0
EXCLUDE_OBJECT_START NAME=Ground_v1.stl_id_0_copy_0
G17
G3 Z.6 I-.95 J.761 P1  F30000
G1 X118.473 Y123.683 Z.6
G1 Z.4
G1 E.8 F2400
SET_VELOCITY_LIMIT ACCEL=5000 ACCEL_TO_DECEL=5000
;TYPE:Inner wall
;WIDTH:0.449999
G1 F12891
G1 X101.077 Y123.683 E.55939
G1 X101.077 Y106.102 E.56532
G3 X101.167 Y103.987 I14.658 J-.437 E.06815
G3 X118.923 Y105.275 I8.834 J1.255 E.86195
M73 P9 R3
G1 X118.923 Y123.683 E.59194
M73 P9 R3
G1 X118.513 Y123.683 E.01318
SET_VELOCITY_LIMIT ACCEL=10000 ACCEL_TO_DECEL=10000
G1 X119.315 Y124.075 F30000
SET_VELOCITY_LIMIT ACCEL=5000 ACCEL_TO_DECEL=5000
;TYPE:Outer wall
;WIDTH:0.419999
G1 F12000
G1 X100.685 Y124.075 E.55492
G1 X100.685 Y106.102 E.53534
G3 X100.78 Y103.922 I15.008 J-.436 E.06508
G3 X119.315 Y105.275 I9.22 J1.32 E.83314
G1 X119.315 Y124.035 E.5588
SET_VELOCITY_LIMIT ACCEL=10000 ACCEL_TO_DECEL=10000
G1 E-.56 F2400
;WIPE_START
G1 F12000
G1 X117.315 Y124.039 E-.24
;WIPE_END
G1 X114.717 Y116.862 Z.8 F30000
G1 X108.639 Y100.073 Z.8
G1 Z.4
G1 E.8 F2400
SET_VELOCITY_LIMIT ACCEL=5000 ACCEL_TO_DECEL=5000
;TYPE:Inner wall
;WIDTH:0.449999
G1 F12891
G1 X109.292 Y99.92 E.02155
G1 X110.2 Y99.876 E.02925
G3 X111.318 Y100.037 I-1.39 J13.636 E.03632
G1 X112.177 Y100.334 E.02925
G1 X112.947 Y100.767 E.02838
G3 X113.843 Y101.495 I-5.711 J7.942 E.03714
G3 X114.514 Y102.336 I-16.91 J14.183 E.03461
G3 X114.998 Y103.293 I-18.858 J10.145 E.0345
G1 X115.255 Y104.166 E.02925
G3 X115.362 Y105.29 I-13.124 J1.82 E.03632
G1 X115.276 Y106.195 E.02925
G1 X114.998 Y107.176 E.03278
G1 X114.541 Y108.087 E.03278
G1 X113.919 Y108.895 E.03278
G1 X113.155 Y109.571 E.03278
G1 X112.278 Y110.089 E.03278
G1 X111.318 Y110.433 E.03278
G1 X110.31 Y110.588 E.03278
G1 X109.292 Y110.55 E.03278
G1 X108.298 Y110.32 E.03278
G1 X107.367 Y109.906 E.03278
G1 X106.513 Y109.307 E.03352
G1 X105.819 Y108.592 E.03205
G1 X105.259 Y107.741 E.03276
G1 X104.871 Y106.798 E.03278
G1 X104.668 Y105.799 E.03278
G1 X104.657 Y104.775 E.03296
G3 X105.209 Y102.827 I6.896 J.901 E.06533
G3 X105.819 Y101.877 I11.136 J6.486 E.03633
G1 X106.447 Y101.219 E.02925
G1 X107.195 Y100.673 E.02978
G3 X108.243 Y100.166 I5.558 J10.154 E.03746
G1 X108.6 Y100.082 E.0118
SET_VELOCITY_LIMIT ACCEL=10000 ACCEL_TO_DECEL=10000
G1 X108.365 Y100.54 F30000
SET_VELOCITY_LIMIT ACCEL=5000 ACCEL_TO_DECEL=5000
;TYPE:Outer wall
;WIDTH:0.419999
G1 F12000
G1 X108.373 Y100.536 E.00026
G3 X109.389 Y100.307 I3.691 J14.035 E.03103
G1 X110.219 Y100.268 E.02474
G3 X111.19 Y100.408 I-3.884 J30.459 E.02922
G1 X112.049 Y100.705 E.02709
G1 X112.751 Y101.106 E.02408
G3 X113.586 Y101.791 I-5.909 J8.057 E.03218
G1 X114.173 Y102.532 E.02815
G3 X114.653 Y103.507 I-9.42 J5.24 E.03239
G1 X114.878 Y104.276 E.02387
G3 X114.972 Y105.253 I-29.119 J3.273 E.02922
G1 X114.885 Y106.158 E.02709
G1 X114.622 Y107.066 E.02815
G1 X114.192 Y107.908 E.02815
G1 X113.611 Y108.653 E.02815
G1 X112.898 Y109.274 E.02815
G1 X112.082 Y109.75 E.02815
G1 X111.19 Y110.062 E.02815
G1 X110.254 Y110.2 E.02815
G1 X109.31 Y110.158 E.02815
G1 X108.391 Y109.939 E.02815
G1 X107.53 Y109.549 E.02815
G1 X106.742 Y108.989 E.0288
