; HEADER_BLOCK_START
; generated by Creality_Print V6.0.1.1375 on 2025-01-17 at 04:16:47
; total layer number: 97
; filament_density: 1.24
; filament_diameter: 1.75
; max_z_height: 18.60
; HEADER_BLOCK_END

; THUMBNAIL_BLOCK_START

;
; THUMBNAIL_BLOCK_END

; THUMBNAIL_BLOCK_START

;
; THUMBNAIL_BLOCK_END

; external perimeters extrusion width = 0.42mm
; perimeters extrusion width = 0.45mm
; infill extrusion width = 0.45mm
; solid infill extrusion width = 0.42mm
; top infill extrusion width = 0.42mm
; support material extrusion width = 0.42mm
; first layer extrusion width = 0.50mm

; external perimeters extrusion width = 0.42mm
; perimeters extrusion width = 0.45mm
; infill extrusion width = 0.45mm
; solid infill extrusion width = 0.42mm
; top infill extrusion width = 0.42mm
; support material extrusion width = 0.42mm
; first layer extrusion width = 0.50mm

; EXECUTABLE_BLOCK_START
EXCLUDE_OBJECT_DEFINE NAME=Link_5_v1.stl_id_0_copy_0 CENTER=130.55,76.827 POLYGON=[[56.8698,6.25842],[63.0928,6.25842],[204.23,141.173],[204.23,147.396],[56.8698,147.396],[56.8698,6.25842]]
EXCLUDE_OBJECT_DEFINE NAME=Link_6_v1.stl_id_1_copy_0 CENTER=110,110 POLYGON=[[36.3199,39.4314],[42.5429,39.4314],[183.68,174.346],[183.68,180.569],[36.3199,180.569],[36.3199,39.4314]]
M73 P0 R53
M106 S0
M106 P2 S0
;TYPE:Custom
M140 S0
M104 S0 
START_PRINT EXTRUDER_TEMP=220 BED_TEMP=50
T0
M204 S2000
G1 Z3 F600
M83
G92 E0
G1 Z1 F600
G90
G21
M83 ; use relative distances for extrusion
G1 E-.8 F2400
M106 S0
;LAYER_CHANGE
;Z:0.2
;HEIGHT:0.2
;BEFORE_LAYER_CHANGE
;0.2
G92 E0

;AFTER_LAYER_CHANGE
;0.2
;_SET_FAN_SPEED_CHANGING_LAYER
SET_VELOCITY_LIMIT ACCEL=1000 ACCEL_TO_DECEL=1000
SET_VELOCITY_LIMIT SQUARE_CORNER_VELOCITY=20
; printing object Link 5 v1.stl id:0 copy 0
EXCLUDE_OBJECT_START NAME=Link_5_v1.stl_id_0_copy_0
G1 Z.4 F30000
G1 X55.746 Y12.989
G1 Z.2
G1 E.8 F2400
;TYPE:Support interface
;WIDTH:0.5
G1 F3600
G1 X55.746 Y13.531 E.01959
G1 X56.481 Y13.531 E.02655
G3 X56.561 Y13.102 I.255 J-.175 E.01752
M73 P0 R52
G1 E-.56 F2400
M73 P0 R52
;WIPE_START
G1 F3600
G1 X56.481 Y13.531 E-.06113
G1 X55.746 Y13.531 E-.10294
G1 X55.746 Y12.989 E-.07593
;WIPE_END
G1 X63.377 Y13.102 Z.6 F30000
G1 X63.401 Y13.102 Z.6
G1 Z.2
G1 E.8 F2400
G1 F3600
G3 X63.481 Y13.531 I-.175 J.255 E.01752
G1 X64.377 Y13.531 E.03234
G1 X64.377 Y12.8 E.0264
G1 X55.746 Y12.8 E.31164
G1 X55.746 Y11.923 E.03167
G1 X64.377 Y11.923 E.31164
G1 X64.377 Y11.046 E.03167
G1 X55.746 Y11.046 E.31164
G1 X55.746 Y10.654 E.01415
G1 X64.377 Y10.654 E.31164
G1 X64.377 Y10.858 E.00734
G1 E-.56 F2400
;WIPE_START
G1 F3600
G1 X64.377 Y10.654 E-.0244
G1 X62.58 Y10.654 E-.2156
;WIPE_END
G1 X64.623 Y18.008 Z.6 F30000
G1 X66.315 Y24.101 Z.6
G1 Z.2
G1 E.8 F2400
;TYPE:Support
G1 F3600
G1 X63.443 Y24.101 E.10372
G1 X63.443 Y14.209 E.35715
G1 X63.238 Y14.004 E.01047
G1 X61.543 Y14.004 E.0612
G1 X61.543 Y13.393 E.02208
G1 X63.043 Y13.393 E.05415
G1 X63.043 Y13.97 E.02084
G1 X64.816 Y13.97 E.06402
G1 X64.816 Y10.216 E.13556
G1 X55.307 Y10.216 E.34331
G1 X55.307 Y13.97 E.13556
G1 X56.92 Y13.97 E.05823
G1 X56.92 Y13.393 E.02084
G1 X58.42 Y13.393 E.05415
G1 X58.42 Y14.004 E.02208
G1 X56.725 Y14.004 E.0612
G1 X56.52 Y14.209 E.01047
G1 X56.52 Y24.101 E.35715
G1 X53.807 Y24.101 E.09793
G1 X53.807 Y2.962 E.76326
G1 X66.315 Y2.962 E.45162
G1 X66.315 Y24.032 E.76078
G1 X65.904 Y23.69 F30000
G1 F3600
G1 X63.854 Y23.69 E.07402
G1 X63.854 Y14.381 E.33609
G1 X65.227 Y14.381 E.04957
G1 X65.227 Y9.804 E.16526
G1 X54.896 Y9.804 E.37302
G1 X54.896 Y14.381 E.16526
G1 X56.108 Y14.381 E.04378
G1 X56.108 Y23.69 E.33609
G1 X54.219 Y23.69 E.06823
G1 X54.219 Y3.373 E.73355
G1 X65.904 Y3.373 E.42191
G1 X65.904 Y23.69 E.73355
G1 X65.396 Y9.296 F30000
G1 F3600
G1 X54.727 Y9.296 E.38524
G1 X54.727 Y3.881 E.19553
G1 X65.396 Y3.881 E.38524
G1 X65.396 Y9.296 E.19553
G1 X64.888 Y8.788 F30000
G1 F3600
G1 X55.234 Y8.788 E.34856
G1 X55.234 Y4.389 E.15886
G1 X64.888 Y4.389 E.34856
G1 X64.888 Y8.788 E.15886
G1 X64.38 Y8.281 F30000
G1 F3600
G1 X55.742 Y8.281 E.31189
G1 X55.742 Y4.897 E.12218
G1 X64.38 Y4.897 E.31189
G1 X64.38 Y8.281 E.12218
G1 X63.873 Y7.773 F30000
G1 F3600
G1 X56.25 Y7.773 E.27522
G1 X56.25 Y5.404 E.08551
G1 X63.873 Y5.404 E.27522
G1 X63.873 Y7.773 E.08551
G1 X63.365 Y7.265 F30000
G1 F3600
G1 X56.758 Y7.265 E.23854
G1 X56.758 Y5.912 E.04884
G1 X63.365 Y5.912 E.23854
G1 X63.365 Y7.265 E.04884
G1 E-.56 F2400
;WIPE_START
G1 F3600
G1 X63.365 Y5.912 E-.16231
G1 X62.717 Y5.912 E-.07769
;WIPE_END
G1 X57.976 Y11.893 Z.6 F30000
G1 X55.601 Y14.889 Z.6
G1 Z.2
G1 E.8 F2400
G1 F3600
G1 X55.601 Y23.182 E.29941
G1 X54.727 Y23.182 E.03155
G1 X54.727 Y14.889 E.29941
G1 X55.601 Y14.889 E.03155
G1 E-.56 F2400
;WIPE_START
G1 F3600
G1 X54.727 Y14.889 E-.10487
G1 X54.727 Y16.015 E-.13513
;WIPE_END
G1 X62.307 Y15.129 Z.6 F30000
G1 X64.362 Y14.889 Z.6
G1 Z.2
G1 E.8 F2400
G1 F3600
G1 X65.396 Y14.889 E.03734
G1 X65.396 Y23.182 E.29941
G1 X64.362 Y23.182 E.03734
G1 X64.362 Y14.889 E.29941
G1 E-.56 F2400
;WIPE_START
G1 F3600
G1 X64.362 Y16.889 E-.24
;WIPE_END
G1 X69.932 Y22.107 Z.6 F30000
G1 X197.096 Y141.223 Z.6
G1 Z.2
G1 E.8 F2400
G1 F3600
G1 X197.096 Y142.722 E.05415
G1 X196.484 Y142.722 E.02208
G1 X196.484 Y141.223 E.05415
G1 X197.027 Y141.223 E.0196
G1 E-.56 F2400
;WIPE_START
G1 F3600
G1 X196.484 Y141.223 E-.06514
G1 X196.484 Y142.68 E-.17486
;WIPE_END
G1 X199.6 Y140.665 Z.6 F30000
G1 Z.2
G1 E.8 F2400
;TYPE:Support interface
G1 F3600
G1 X199.6 Y140.123 E.01959
G1 X196.723 Y140.123 E.10388
G1 X196.723 Y140.784 E.02388
G1 X199.6 Y140.854 E.10391
G1 X199.6 Y141.731 E.03167
G1 X197.534 Y141.731 E.07458
G1 X197.534 Y142.608 E.03167
G1 X199.6 Y142.608 E.07458
G1 X199.6 Y143.485 E.03167
G1 X197.534 Y143.485 E.07458
G1 X197.534 Y144.362 E.03167
G1 X199.6 Y144.362 E.07458
G1 X199.6 Y145.239 E.03167
G1 X197.534 Y145.239 E.07458
G1 X197.534 Y146.116 E.03167
G1 X199.6 Y146.116 E.07458
G1 X199.6 Y146.993 E.03167
G1 X197.534 Y146.993 E.07458
G1 X197.522 Y147.569 E.02078
G1 X197.096 Y147.345 F30000
;TYPE:Support
G1 F3600
G1 X196.484 Y147.345 E.02208
G1 X196.484 Y145.846 E.05415
G1 X197.096 Y145.846 E.02208
G1 X197.096 Y147.277 E.05168
G1 X196.723 Y147.87 F30000
;TYPE:Support interface
G1 F3600
G1 X199.6 Y147.87 E.10388
G1 X199.6 Y148.747 E.03167
G1 X196.723 Y148.747 E.10388
G1 E-.56 F2400
;WIPE_START
G1 F3600
G1 X198.723 Y148.747 E-.24
;WIPE_END
G1 X206.166 Y150.437 Z.6 F30000
G1 X207.292 Y150.692 Z.6
G1 Z.2
G1 E.8 F2400
;TYPE:Support
G1 F3600
G1 X186.153 Y150.692 E.76326
G1 X186.153 Y147.746 E.1064
G1 X196.284 Y147.741 E.36579
G1 X196.284 Y149.193 E.05243
G1 X200.038 Y149.193 E.13556
G1 X200.038 Y139.684 E.34331
G1 X196.284 Y139.684 E.13556
G1 X196.284 Y140.828 E.04128
G1 X186.153 Y140.823 E.36579
G1 X186.153 Y138.184 E.09526
G1 X207.292 Y138.184 E.76326
G1 X207.292 Y150.624 E.44914
G1 E-.56 F2400
;WIPE_START
G1 F3600
G1 X207.292 Y148.624 E-.24
;WIPE_END
G1 X200.422 Y145.3 Z.6 F30000
G1 X186.564 Y138.596 Z.6
G1 Z.2
G1 E.8 F2400
G1 F3600
G1 X206.881 Y138.596 E.73355
G1 X206.881 Y150.281 E.42191
G1 X186.564 Y150.281 E.73355
G1 X186.564 Y148.157 E.07669
G1 X195.873 Y148.157 E.33609
G1 X195.873 Y149.604 E.05225
G1 X200.45 Y149.604 E.16526
G1 X200.45 Y139.273 E.37302
G1 X195.873 Y139.273 E.16526
G1 X195.873 Y140.411 E.0411
G1 X186.564 Y140.411 E.33609
G1 X186.564 Y138.596 E.06555
G1 X200.958 Y139.104 F30000
G1 F3600
G1 X206.373 Y139.104 E.19553
G1 X206.373 Y149.773 E.38524
G1 X200.958 Y149.773 E.19553
G1 X200.958 Y139.104 E.38524
G1 X201.465 Y139.611 F30000
G1 F3600
G1 X205.865 Y139.611 E.15886
G1 X205.865 Y149.265 E.34856
G1 X201.465 Y149.265 E.15886
G1 X201.465 Y139.611 E.34856
G1 X201.973 Y140.119 F30000
G1 F3600
G1 X205.357 Y140.119 E.12218
G1 X205.357 Y148.757 E.31189
G1 X201.973 Y148.757 E.12218
G1 X201.973 Y140.119 E.31189
G1 X202.481 Y140.627 F30000
G1 F3600
G1 X204.85 Y140.627 E.08551
G1 X204.85 Y148.25 E.27522
G1 X202.481 Y148.25 E.08551
G1 X202.481 Y140.627 E.27522
G1 X202.989 Y141.135 F30000
G1 F3600
G1 X204.342 Y141.135 E.04884
G1 X204.342 Y147.742 E.23854
G1 X202.989 Y147.742 E.04884
G1 X202.989 Y141.135 E.23854
G1 E-.56 F2400
;WIPE_START
G1 F3600
G1 X202.989 Y143.135 E-.24
;WIPE_END
G1 X195.962 Y140.156 Z.6 F30000
G1 X195.365 Y139.903 Z.6
G1 Z.2
G1 E.8 F2400
G1 F3600
G1 X187.072 Y139.903 E.29941
G1 X187.072 Y139.104 E.02888
G1 X195.365 Y139.104 E.29941
G1 X195.365 Y139.903 E.02888
G1 E-.56 F2400
;WIPE_START
G1 F3600
G1 X195.365 Y139.104 E-.09597
G1 X194.165 Y139.104 E-.14403
;WIPE_END
G1 X195.115 Y146.677 Z.6 F30000
G1 X195.365 Y148.665 Z.6
G1 Z.2
G1 E.8 F2400
G1 F3600
G1 X195.365 Y149.773 E.04002
G1 X187.072 Y149.773 E.29941
G1 X187.072 Y148.665 E.04002
G1 X195.365 Y148.665 E.29941
G1 E-.56 F2400
;WIPE_START
G1 F3600
G1 X193.365 Y148.665 E-.24
;WIPE_END
G1 X185.742 Y148.275 Z.6 F30000
G1 X63.693 Y142.03 Z.6
G1 Z.2
G1 E.8 F2400
;TYPE:Inner wall
;WIDTH:0.499999
G1 F3600
G1 X195.277 Y142.03 E4.75098
G1 X195.277 Y146.538 E.1628
G1 X57.727 Y146.538 E4.96638
G1 X57.727 Y15.211 E4.74169
G1 X62.236 Y15.211 E.1628
G1 X62.236 Y141.435 E4.55742
M73 P1 R52
G1 X62.333 Y141.696 E.01006
M73 P1 R52
G1 X62.569 Y141.932 E.01208
G1 X62.921 Y142.03 E.01318
G1 X63.653 Y142.03 E.0264
G1 X62.921 Y141.573 F30000
;TYPE:Outer wall
G1 F3600
G1 X195.734 Y141.573 E4.79533
G1 X195.734 Y146.996 E.1958
G1 X57.27 Y146.996 E4.99939
G1 X57.27 Y14.754 E4.7747
G1 X62.693 Y14.754 E.1958
G1 X62.693 Y141.344 E4.57065
G1 X62.76 Y141.506 E.00632
G1 X62.884 Y141.557 E.00487
G1 E-.56 F2400
;WIPE_START
G1 F3600
G1 X64.884 Y141.557 E-.24
;WIPE_END
G1 X72.517 Y141.593 Z.6 F30000
G1 X194.216 Y142.167 Z.6
G1 Z.2
G1 E.8 F2400
;TYPE:Bottom surface
;WIDTH:0.500124
G1 F3600
G1 X194.934 Y142.885 E.0367
G1 X194.934 Y143.532 E.02335
G1 X193.775 Y142.372 E.05922
G1 X193.128 Y142.372 E.02335
G1 X194.934 Y144.178 E.09224
G1 X194.934 Y144.825 E.02335
G1 X192.482 Y142.372 E.12527
G1 X191.835 Y142.372 E.02335
G1 X194.934 Y145.472 E.15829
G1 X194.934 Y146.118 E.02335
G1 X191.188 Y142.372 E.19132
G1 X190.542 Y142.372 E.02335
G1 X194.365 Y146.196 E.19527
G1 X193.718 Y146.196 E.02335
G1 X189.895 Y142.372 E.19527
G1 X189.249 Y142.372 E.02335
G1 X193.072 Y146.196 E.19527
G1 X192.425 Y146.196 E.02335
G1 X188.602 Y142.372 E.19527
G1 X187.956 Y142.372 E.02335
G1 X191.779 Y146.196 E.19527
G1 X191.132 Y146.196 E.02335
G1 X187.309 Y142.372 E.19527
G1 X186.662 Y142.372 E.02335
G1 X190.486 Y146.196 E.19527
G1 X189.839 Y146.196 E.02335
G1 X186.016 Y142.372 E.19527
G1 X185.369 Y142.372 E.02335
G1 X189.192 Y146.196 E.19527
G1 X188.546 Y146.196 E.02335
G1 X184.723 Y142.372 E.19527
G1 X184.076 Y142.372 E.02335
G1 X187.899 Y146.196 E.19527
G1 X187.253 Y146.196 E.02335
G1 X183.429 Y142.372 E.19527
G1 X182.783 Y142.372 E.02335
G1 X186.606 Y146.196 E.19527
G1 X185.959 Y146.196 E.02335
G1 X182.136 Y142.372 E.19527
G1 X181.49 Y142.372 E.02335
G1 X185.313 Y146.196 E.19527
G1 X184.666 Y146.196 E.02335
G1 X180.843 Y142.372 E.19527
G1 X180.196 Y142.372 E.02335
G1 X184.02 Y146.196 E.19527
G1 X183.373 Y146.196 E.02335
G1 X179.55 Y142.372 E.19527
G1 X178.903 Y142.372 E.02335
G1 X182.727 Y146.196 E.19527
G1 X182.08 Y146.196 E.02335
G1 X178.257 Y142.372 E.19527
G1 X177.61 Y142.372 E.02335
G1 X181.433 Y146.196 E.19527
G1 X180.787 Y146.196 E.02335
G1 X176.964 Y142.372 E.19527
G1 X176.317 Y142.372 E.02335
G1 X180.14 Y146.196 E.19527
G1 X179.494 Y146.196 E.02335
G1 X175.67 Y142.372 E.19527
G1 X175.024 Y142.372 E.02335
G1 X178.847 Y146.196 E.19527
G1 X178.2 Y146.196 E.02335
G1 X174.377 Y142.372 E.19527
G1 X173.731 Y142.372 E.02335
G1 X177.554 Y146.196 E.19527
G1 X176.907 Y146.196 E.02335
G1 X173.084 Y142.372 E.19527
G1 X172.437 Y142.372 E.02335
G1 X176.261 Y146.196 E.19527
G1 X175.614 Y146.196 E.02335
G1 X171.791 Y142.372 E.19527
G1 X171.144 Y142.372 E.02335
G1 X174.968 Y146.196 E.19527
G1 X174.321 Y146.196 E.02335
G1 X170.498 Y142.372 E.19527
G1 X169.851 Y142.372 E.02335
G1 X173.674 Y146.196 E.19527
G1 X173.028 Y146.196 E.02335
G1 X169.205 Y142.372 E.19527
G1 X168.558 Y142.372 E.02335
G1 X172.381 Y146.196 E.19527
G1 X171.735 Y146.196 E.02335
G1 X167.911 Y142.372 E.19527
G1 X167.265 Y142.372 E.02335
G1 X171.088 Y146.196 E.19527
G1 X170.441 Y146.196 E.02335
G1 X166.618 Y142.372 E.19527
G1 X165.972 Y142.372 E.02335
G1 X169.795 Y146.196 E.19527
G1 X169.148 Y146.196 E.02335
G1 X165.325 Y142.372 E.19527
G1 X164.678 Y142.372 E.02335
G1 X168.502 Y146.196 E.19527
G1 X167.855 Y146.196 E.02335
G1 X164.032 Y142.372 E.19527
G1 X163.385 Y142.372 E.02335
G1 X167.209 Y146.196 E.19527
G1 X166.562 Y146.196 E.02335
G1 X162.739 Y142.372 E.19527
G1 X162.092 Y142.372 E.02335
G1 X165.915 Y146.196 E.19527
G1 X165.269 Y146.196 E.02335
G1 X161.446 Y142.372 E.19527
G1 X160.799 Y142.372 E.02335
G1 X164.622 Y146.196 E.19527
G1 X163.976 Y146.196 E.02335
G1 X160.152 Y142.372 E.19527
G1 X159.506 Y142.372 E.02335
G1 X163.329 Y146.196 E.19527
G1 X162.682 Y146.196 E.02335
G1 X158.859 Y142.372 E.19527
G1 X158.213 Y142.372 E.02335
G1 X162.036 Y146.196 E.19527
G1 X161.389 Y146.196 E.02335
G1 X157.566 Y142.372 E.19527
G1 X156.919 Y142.372 E.02335
G1 X160.743 Y146.196 E.19527
G1 X160.096 Y146.196 E.02335
G1 X156.273 Y142.372 E.19527
G1 X155.626 Y142.372 E.02335
G1 X159.45 Y146.196 E.19527
G1 X158.803 Y146.196 E.02335
G1 X154.98 Y142.372 E.19527
G1 X154.333 Y142.372 E.02335
G1 X158.156 Y146.196 E.19527
G1 X157.51 Y146.196 E.02335
G1 X153.687 Y142.372 E.19527
G1 X153.04 Y142.372 E.02335
G1 X156.863 Y146.196 E.19527
G1 X156.217 Y146.196 E.02335
G1 X152.393 Y142.372 E.19527
G1 X151.747 Y142.372 E.02335
G1 X155.57 Y146.196 E.19527
G1 X154.923 Y146.196 E.02335
G1 X151.1 Y142.372 E.19527
G1 X150.454 Y142.372 E.02335
G1 X154.277 Y146.196 E.19527
G1 X153.63 Y146.196 E.02335
G1 X149.807 Y142.372 E.19527
G1 X149.16 Y142.372 E.02335
G1 X152.984 Y146.196 E.19527
G1 X152.337 Y146.196 E.02335
G1 X148.514 Y142.372 E.19527
G1 X147.867 Y142.372 E.02335
G1 X151.691 Y146.196 E.19527
G1 X151.044 Y146.196 E.02335
G1 X147.221 Y142.372 E.19527
G1 X146.574 Y142.372 E.02335
G1 X150.397 Y146.196 E.19527
G1 X149.751 Y146.196 E.02335
G1 X145.928 Y142.372 E.19527
G1 X145.281 Y142.372 E.02335
G1 X149.104 Y146.196 E.19527
G1 X148.458 Y146.196 E.02335
G1 X144.634 Y142.372 E.19527
G1 X143.988 Y142.372 E.02335
G1 X147.811 Y146.196 E.19527
G1 X147.164 Y146.196 E.02335
G1 X143.341 Y142.372 E.19527
G1 X142.695 Y142.372 E.02335
G1 X146.518 Y146.196 E.19527
G1 X145.871 Y146.196 E.02335
G1 X142.048 Y142.372 E.19527
G1 X141.401 Y142.372 E.02335
G1 X145.225 Y146.196 E.19527
G1 X144.578 Y146.196 E.02335
G1 X140.755 Y142.372 E.19527
G1 X140.108 Y142.372 E.02335
G1 X143.931 Y146.196 E.19527
G1 X143.285 Y146.196 E.02335
G1 X139.462 Y142.372 E.19527
G1 X138.815 Y142.372 E.02335
G1 X142.638 Y146.196 E.19527
G1 X141.992 Y146.196 E.02335
G1 X138.169 Y142.372 E.19527
G1 X137.522 Y142.372 E.02335
G1 X141.345 Y146.196 E.19527
G1 X140.699 Y146.196 E.02335
G1 X136.875 Y142.372 E.19527
G1 X136.229 Y142.372 E.02335
G1 X140.052 Y146.196 E.19527
G1 X139.405 Y146.196 E.02335
G1 X135.582 Y142.372 E.19527
G1 X134.936 Y142.372 E.02335
G1 X138.759 Y146.196 E.19527
G1 X138.112 Y146.196 E.02335
G1 X134.289 Y142.372 E.19527
G1 X133.642 Y142.372 E.02335
G1 X137.466 Y146.196 E.19527
G1 X136.819 Y146.196 E.02335
G1 X132.996 Y142.372 E.19527
G1 X132.349 Y142.372 E.02335
G1 X136.172 Y146.196 E.19527
G1 X135.526 Y146.196 E.02335
G1 X131.703 Y142.372 E.19527
G1 X131.056 Y142.372 E.02335
G1 X134.879 Y146.196 E.19527
G1 X134.233 Y146.196 E.02335
G1 X130.41 Y142.372 E.19527
G1 X129.763 Y142.372 E.02335
G1 X133.586 Y146.196 E.19527
G1 X132.94 Y146.196 E.02335
G1 X129.116 Y142.372 E.19527
G1 X128.47 Y142.372 E.02335
G1 X132.293 Y146.196 E.19527
G1 X131.646 Y146.196 E.02335
G1 X127.823 Y142.372 E.19527
G1 X127.177 Y142.372 E.02335
G1 X131 Y146.196 E.19527
G1 X130.353 Y146.196 E.02335
G1 X126.53 Y142.372 E.19527
G1 X125.883 Y142.372 E.02335
G1 X129.707 Y146.196 E.19527
G1 X129.06 Y146.196 E.02335
G1 X125.237 Y142.372 E.19527
G1 X124.59 Y142.372 E.02335
G1 X128.413 Y146.196 E.19527
G1 X127.767 Y146.196 E.02335
G1 X123.944 Y142.372 E.19527
G1 X123.297 Y142.372 E.02335
G1 X127.12 Y146.196 E.19527
G1 X126.474 Y146.196 E.02335
G1 X122.651 Y142.372 E.19527
