; HEADER_BLOCK_START
; generated by Creality_Print V6.0.1.1375 on 2025-01-17 at 04:14:19
; total layer number: 872
; filament_density: 1.24
; filament_diameter: 1.75
; max_z_height: 111.20
; HEADER_BLOCK_END

; THUMBNAIL_BLOCK_START

;
; THUMBNAIL_BLOCK_END

; THUMBNAIL_BLOCK_START

;
; THUMBNAIL_BLOCK_END

; external perimeters extrusion width = 0.42mm
; perimeters extrusion width = 0.45mm
; infill extrusion width = 0.45mm
; solid infill extrusion width = 0.42mm
; top infill extrusion width = 0.42mm
; support material extrusion width = 0.42mm
; first layer extrusion width = 0.50mm

; EXECUTABLE_BLOCK_START
EXCLUDE_OBJECT_DEFINE NAME=Link_1_v1.stl_id_0_copy_0 CENTER=111.148,97.7592 POLYGON=[[51.6336,79.0981],[149.716,11.7915],[150.826,11.116],[152.019,10.5981],[153.271,10.2474],[154.559,10.0703],[155.859,10.0703],[157.147,10.2474],[158.398,10.5981],[159.591,11.116],[160.701,11.7915],[161.71,12.6119],[162.597,13.562],[163.347,14.6241],[163.945,15.7784],[164.38,17.0033],[164.645,18.2762],[164.734,19.5732],[170.661,179.098],[170.661,185.448],[51.6336,185.448],[51.6336,79.0981]]
M73 P0 R93
M106 S0
M106 P2 S0
;TYPE:Custom
M140 S0
M104 S0 
START_PRINT EXTRUDER_TEMP=220 BED_TEMP=50
T0
M204 S2000
G1 Z3 F600
M83
G92 E0
G1 Z1 F600
G90
G21
M83 ; use relative distances for extrusion
G1 E-.8 F2400
M106 S0
;LAYER_CHANGE
;Z:0.2
;HEIGHT:0.2
;BEFORE_LAYER_CHANGE
;0.2
G92 E0

;AFTER_LAYER_CHANGE
;0.2
;_SET_FAN_SPEED_CHANGING_LAYER
SET_VELOCITY_LIMIT ACCEL=1000 ACCEL_TO_DECEL=1000
SET_VELOCITY_LIMIT SQUARE_CORNER_VELOCITY=20
; printing object Link 1 v1.stl id:0 copy 0
EXCLUDE_OBJECT_START NAME=Link_1_v1.stl_id_0_copy_0
G1 Z.4 F30000
G1 X173.505 Y188.887
G1 Z.2
G1 E.8 F2400
;TYPE:Support
;WIDTH:0.5
G1 F3600
G1 X66.053 Y188.887 E3.87965
G1 X66.053 Y185.798 E.11153
G1 X70.829 Y185.798 E.17243
G1 X71.034 Y185.593 E.01047
G1 X71.034 Y176.379 E.33268
G1 X173.505 Y176.379 E3.69982
G1 X173.505 Y188.819 E.44914
G1 X71.445 Y176.79 F30000
G1 F3600
G1 X173.093 Y176.79 E3.67011
G1 X173.093 Y188.476 E.42191
G1 X66.464 Y188.476 E3.84995
G1 X66.464 Y186.21 E.08183
G1 X70.999 Y186.21 E.16373
G1 X71.445 Y185.764 E.02277
G1 X71.445 Y176.79 E.32398
G1 X71.953 Y177.298 F30000
G1 F3600
G1 X172.585 Y177.298 E3.63344
G1 X172.585 Y187.968 E.38524
G1 X66.972 Y187.968 E3.81327
G1 X66.972 Y186.717 E.04515
G1 X71.209 Y186.717 E.15299
G1 X71.953 Y185.974 E.03796
G1 X71.953 Y177.298 E.31324
G1 X72.461 Y177.806 F30000
G1 F3600
G1 X172.078 Y177.806 E3.59677
G1 X172.078 Y187.46 E.34856
G1 X71.185 Y187.46 E3.64283
G1 X72.461 Y186.184 E.06514
G1 X72.461 Y177.806 E.3025
G1 X72.969 Y178.314 F30000
G1 F3600
G1 X171.57 Y178.314 E3.56009
G1 X171.57 Y186.952 E.31189
G1 X72.411 Y186.952 E3.58022
G1 X72.969 Y186.395 E.02847
G1 X72.969 Y178.314 E.29176
G1 X73.476 Y178.822 F30000
G1 F3600
G1 X171.062 Y178.822 E3.52342
G1 X171.062 Y186.444 E.27522
G1 X73.476 Y186.444 E3.52342
G1 X73.476 Y178.822 E.27522
G1 X73.984 Y179.33 F30000
G1 F3600
G1 X170.554 Y179.33 E3.48674
G1 X170.554 Y185.936 E.23854
G1 X73.984 Y185.936 E3.48674
G1 X73.984 Y179.33 E.23854
G1 X74.492 Y179.838 F30000
G1 F3600
G1 X170.046 Y179.838 E3.45007
G1 X170.046 Y185.429 E.20187
G1 X74.492 Y185.429 E3.45007
G1 X74.492 Y179.838 E.20187
G1 X75 Y180.345 F30000
G1 F3600
G1 X169.538 Y180.345 E3.4134
G1 X169.538 Y184.921 E.16519
G1 X75 Y184.921 E3.4134
G1 X75 Y180.345 E.16519
G1 X75.508 Y180.853 F30000
G1 F3600
G1 X169.03 Y180.853 E3.37672
G1 X169.03 Y184.413 E.12852
G1 X75.508 Y184.413 E3.37672
M73 P0 R92
G1 X75.508 Y180.853 E.12852
M73 P0 R92
G1 X76.016 Y181.361 F30000
G1 F3600
G1 X168.522 Y181.361 E3.34005
G1 X168.522 Y183.905 E.09185
G1 X76.016 Y183.905 E3.34005
G1 X76.016 Y181.361 E.09185
G1 X76.524 Y181.869 F30000
G1 F3600
G1 X168.015 Y181.869 E3.30337
G1 X168.015 Y183.397 E.05517
G1 X76.524 Y183.397 E3.30337
G1 X76.524 Y181.869 E.05517
G1 X77.032 Y182.377 F30000
G1 F3600
G1 X167.507 Y182.377 E3.2667
G1 X167.507 Y182.889 E.0185
G1 X77.032 Y182.889 E3.2667
G1 X77.032 Y182.377 E.0185
G1 E-.56 F2400
;WIPE_START
G1 F3600
G1 X77.032 Y182.889 E-.06148
G1 X78.519 Y182.889 E-.17852
;WIPE_END
G1 X77.032 Y175.922 Z.6 F30000
G1 Z.2
G1 E.8 F2400
;TYPE:Brim
G1 F3600
G1 X71.012 Y175.922 E.21733
G1 X71.012 Y98.477 E2.79624
G1 X145.355 Y98.477 E2.68423
G1 X145.355 Y157.673 E2.13735
G1 X145.449 Y159.023 E.04887
G1 X145.724 Y160.34 E.04855
G1 X146.175 Y161.607 E.04856
G1 X146.802 Y162.812 E.04905
G1 X147.58 Y163.909 E.04855
G1 X148.5 Y164.889 E.04855
G1 X149.545 Y165.736 E.04855
G1 X150.696 Y166.432 E.04855
G1 X151.901 Y166.954 E.04743
G1 X153.182 Y167.315 E.04806
G1 X154.524 Y167.501 E.04892
G1 X155.89 Y167.502 E.0493
G1 X157.222 Y167.318 E.04855
G1 X158.516 Y166.954 E.04855
G1 X159.749 Y166.417 E.04855
G1 X160.872 Y165.736 E.04743
G1 X161.917 Y164.889 E.04855
G1 X162.837 Y163.909 E.04855
G1 X163.622 Y162.8 E.04905
G1 X164.242 Y161.606 E.04856
G1 X164.702 Y160.31 E.04968
G1 X164.973 Y158.993 E.04855
G1 X165.062 Y157.673 E.04775
G1 X165.061 Y19.551 E4.98706
G1 X164.971 Y18.24 E.04743
G1 X164.698 Y16.923 E.04855
G1 X164.242 Y15.64 E.04918
G1 X163.632 Y14.461 E.04792
G1 X162.857 Y13.362 E.04856
G1 X161.927 Y12.366 E.04918
G1 X160.898 Y11.529 E.04792
M73 P1 R92
G1 X159.749 Y10.829 E.04856
M73 P1 R92
G1 X158.5 Y10.286 E.04918
G1 X157.222 Y9.928 E.04792
G1 X155.903 Y9.745 E.04806
G1 X154.527 Y9.744 E.04968
G1 X153.182 Y9.931 E.04905
G1 X151.917 Y10.286 E.04743
G1 X150.696 Y10.815 E.04806
G1 X149.52 Y11.529 E.04967
G1 X148.477 Y12.378 E.04856
G1 X147.552 Y13.373 E.04905
G1 X146.786 Y14.461 E.04806
G1 X146.181 Y15.627 E.04743
G1 X145.719 Y16.923 E.04968
G1 X145.445 Y18.254 E.04905
G1 X145.355 Y19.573 E.04775
G1 X145.355 Y78.77 E2.13735
G1 X51.634 Y78.77 E3.38391
G1 X51.517 Y78.794 E.00429
G1 X51.381 Y78.903 E.00632
G1 X51.334 Y78.988 E.0035
G1 X51.305 Y79.098 E.00413
G1 X51.314 Y185.511 E3.84215
G1 X51.329 Y185.564 E.002
G1 X51.438 Y185.701 E.00632
G1 X51.523 Y185.748 E.0035
G1 X51.634 Y185.777 E.00413
G1 X65.596 Y185.777 E.50412
G1 X65.596 Y188.982 E.11572
G1 X65.663 Y189.143 E.00632
G1 X65.797 Y189.277 E.00684
G1 X65.958 Y189.344 E.00632
G1 X77.767 Y189.344 E.42639
G1 X77.267 Y190.152 E.0343
G1 X76.719 Y190.842 E.03183
G1 X76.098 Y191.468 E.03183
G1 X75.413 Y192.022 E.03183
G1 X74.67 Y192.497 E.03183
G1 X73.881 Y192.888 E.0318
G1 X72.946 Y193.22 E.03581
G1 X72.035 Y193.432 E.03379
G1 X71.156 Y193.533 E.03192
G1 X70.68 Y193.547 E.0172
G1 X51.64 Y193.547 E.68747
G1 X50.753 Y193.498 E.03205
G1 X49.884 Y193.353 E.03183
G1 X49.036 Y193.113 E.03183
G1 X48.217 Y192.78 E.0319
G1 X47.679 Y192.502 E.02188
G1 X46.93 Y192.031 E.03194
G1 X46.24 Y191.483 E.03183
G1 X45.613 Y190.863 E.03183
G1 X45.06 Y190.177 E.03183
G1 X44.584 Y189.435 E.03183
G1 X44.194 Y188.646 E.03179
G1 X43.847 Y187.658 E.03779
G1 X43.65 Y186.8 E.03181
G1 X43.549 Y185.921 E.03193
G1 X43.535 Y185.445 E.0172
G1 X43.535 Y79.104 E3.83953
G1 X43.584 Y78.218 E.03205
G1 X43.729 Y77.349 E.03183
G1 X43.969 Y76.5 E.03183
G1 X44.301 Y75.682 E.0319
G1 X44.58 Y75.144 E.02188
G1 X45.05 Y74.395 E.03194
G1 X45.598 Y73.704 E.03183
G1 X46.219 Y73.078 E.03183
G1 X46.905 Y72.524 E.03183
G1 X47.647 Y72.049 E.03183
G1 X48.437 Y71.659 E.0318
G1 X49.371 Y71.326 E.03581
G1 X50.283 Y71.115 E.03379
G1 X51.161 Y71.013 E.03192
G1 X51.637 Y70.999 E.0172
G1 X137.356 Y70.999 E3.09498
G1 X137.497 Y70.951 E.00538
G1 X137.585 Y70.771 E.00722
G1 X137.585 Y19.577 E1.8484
G1 X137.604 Y19.025 E.01995
G1 X137.692 Y17.733 E.04676
G1 X137.841 Y16.64 E.03983
G1 X138.105 Y15.369 E.04687
G1 X138.403 Y14.302 E.03998
G1 X138.836 Y13.079 E.04687
G1 X139.277 Y12.063 E.03998
G1 X139.873 Y10.91 E.04687
G1 X140.448 Y9.964 E.03998
G1 X141.196 Y8.903 E.04687
G1 X141.894 Y8.043 E.03998
G1 X142.779 Y7.094 E.04687
G1 X143.588 Y6.338 E.03998
G1 X144.594 Y5.518 E.04687
G1 X145.498 Y4.878 E.03998
G1 X146.607 Y4.203 E.04687
G1 X147.59 Y3.693 E.03998
G1 X148.78 Y3.175 E.04687
G1 X149.823 Y2.804 E.03998
G1 X151.073 Y2.452 E.04687
G1 X152.157 Y2.226 E.03998
G1 X153.442 Y2.049 E.04686
G1 X154.553 Y1.972 E.04019
G1 X155.864 Y1.972 E.04736
G1 X156.969 Y2.048 E.03998
G1 X158.242 Y2.223 E.04638
G1 X159.32 Y2.447 E.03977
G1 X160.57 Y2.796 E.04687
G1 X161.614 Y3.166 E.03998
G1 X162.805 Y3.682 E.04687
G1 X163.788 Y4.191 E.03998
G1 X164.898 Y4.865 E.04687
G1 X165.803 Y5.503 E.03998
G1 X166.811 Y6.321 E.04687
G1 X167.62 Y7.076 E.03998
G1 X168.507 Y8.024 E.04687
G1 X169.206 Y8.883 E.03998
G1 X169.956 Y9.943 E.04687
G1 X170.532 Y10.888 E.03998
G1 X171.13 Y12.04 E.04687
G1 X171.572 Y13.056 E.03998
G1 X172.007 Y14.278 E.04687
G1 X172.307 Y15.345 E.03998
G1 X172.572 Y16.615 E.04687
G1 X172.723 Y17.712 E.03998
G1 X172.813 Y19.011 E.04701
G1 X172.832 Y19.57 E.02021
G1 X172.832 Y157.669 E4.9862
G1 X172.814 Y158.221 E.01995
G1 X172.726 Y159.514 E.04676
G1 X172.576 Y160.606 E.03983
G1 X172.313 Y161.878 E.04687
G1 X172.015 Y162.944 E.03998
G1 X171.581 Y164.167 E.04687
G1 X171.14 Y165.183 E.03998
G1 X170.544 Y166.336 E.04687
G1 X169.969 Y167.283 E.03998
G1 X169.222 Y168.344 E.04687
G1 X168.523 Y169.203 E.03998
G1 X167.638 Y170.152 E.04687
G1 X166.829 Y170.909 E.03998
G1 X165.823 Y171.729 E.04687
G1 X164.919 Y172.368 E.03998
G1 X163.81 Y173.043 E.04687
G1 X162.827 Y173.553 E.03998
G1 X161.637 Y174.071 E.04687
G1 X160.594 Y174.443 E.03998
G1 X159.345 Y174.794 E.04687
G1 X158.261 Y175.02 E.03998
G1 X156.975 Y175.198 E.04687
G1 X155.87 Y175.274 E.03998
G1 X154.572 Y175.275 E.04687
G1 X153.467 Y175.2 E.03998
G1 X152.181 Y175.024 E.04687
G1 X151.097 Y174.8 E.03998
G1 X149.847 Y174.45 E.04687
G1 X148.803 Y174.08 E.03998
G1 X147.612 Y173.564 E.04687
G1 X146.629 Y173.055 E.03998
G1 X145.519 Y172.382 E.04687
G1 X144.614 Y171.744 E.03998
G1 X143.607 Y170.925 E.04687
G1 X142.797 Y170.17 E.03998
G1 X141.91 Y169.222 E.04687
G1 X141.211 Y168.364 E.03998
G1 X140.461 Y167.304 E.04687
G1 X139.886 Y166.358 E.03998
G1 X139.288 Y165.206 E.04687
G1 X138.846 Y164.191 E.03998
G1 X138.41 Y162.968 E.04687
G1 X138.111 Y161.902 E.03998
G1 X137.846 Y160.631 E.04687
G1 X137.694 Y159.534 E.03998
G1 X137.604 Y158.235 E.04701
G1 X137.585 Y157.676 E.02021
G1 X137.585 Y106.476 E1.84865
G1 X137.536 Y106.335 E.00538
G1 X137.356 Y106.247 E.00722
G1 X79.011 Y106.247 E2.10661
G1 X78.87 Y106.296 E.00538
G1 X78.782 Y106.476 E.00722
G1 X78.782 Y175.922 E2.50743
G1 X77.072 Y175.922 E.06178
G1 X77.072 Y175.465 F30000
G1 F3600
G1 X71.606 Y175.465 E.19732
G1 X71.502 Y175.417 E.00413
G1 X71.469 Y175.328 E.00344
G1 X71.469 Y99.071 E2.75333
G1 X71.517 Y98.967 E.00413
G1 X71.606 Y98.934 E.00344
G1 X144.761 Y98.934 E2.64132
G1 X144.865 Y98.981 E.00413
G1 X144.898 Y99.071 E.00344
G1 X144.898 Y157.668 E2.11572
G1 X145.003 Y159.125 E.05275
G1 X145.296 Y160.501 E.0508
G1 X145.774 Y161.825 E.05082
G1 X146.434 Y163.083 E.05131
G1 X147.253 Y164.228 E.05081
G1 X148.161 Y165.195 E.0479
G1 X149.251 Y166.085 E.05081
G1 X150.451 Y166.818 E.05079
G1 X151.786 Y167.396 E.0525
G1 X153.128 Y167.769 E.05031
G1 X154.532 Y167.958 E.05115
G1 X155.961 Y167.954 E.05159
G1 X157.354 Y167.756 E.05079
G1 X158.707 Y167.37 E.0508
G1 X159.994 Y166.803 E.05077
G1 X161.167 Y166.085 E.04966
G1 X162.198 Y165.25 E.0479
G1 X163.164 Y164.228 E.05081
G1 X163.99 Y163.071 E.05131
G1 X164.644 Y161.825 E.0508
G1 X165.152 Y160.393 E.05488
G1 X165.429 Y159.015 E.05076
G1 X165.519 Y157.669 E.04871
G1 X165.517 Y19.515 E4.98819
G1 X165.417 Y18.139 E.04981
G1 X165.148 Y16.84 E.04789
G1 X164.644 Y15.421 E.05435
G1 X164 Y14.191 E.05015
G1 X163.236 Y13.106 E.04789
G1 X162.209 Y12.006 E.05435
G1 X161.128 Y11.134 E.05015
G1 X159.995 Y10.444 E.04789
G1 X158.614 Y9.844 E.05435
G1 X157.276 Y9.474 E.05014
G1 X155.976 Y9.293 E.0474
G1 X154.455 Y9.293 E.05489
G1 X153.05 Y9.493 E.05126
G1 X151.728 Y9.87 E.04964
G1 X150.523 Y10.392 E.0474
G1 X149.29 Y11.133 E.05193
G1 X148.136 Y12.074 E.05375
G1 X147.172 Y13.117 E.05129
G1 X146.417 Y14.191 E.0474
G1 X145.779 Y15.409 E.04964
G1 X145.291 Y16.762 E.05192
G1 X144.999 Y18.153 E.05133
G1 X144.898 Y19.578 E.05159
G1 X144.898 Y78.175 E2.11572
G1 X144.85 Y78.279 E.00413
G1 X144.761 Y78.313 E.00344
G1 X51.644 Y78.313 E3.36207
G1 X51.437 Y78.345 E.00758
G1 X51.22 Y78.446 E.00865
G1 X51.106 Y78.537 E.00525
G1 X50.977 Y78.689 E.0072
G1 X50.89 Y78.88 E.00759
G1 X50.848 Y79.111 E.00845
G1 X50.857 Y185.502 E3.84136
G1 X50.876 Y185.636 E.00489
G1 X50.982 Y185.862 E.00901
G1 X51.072 Y185.975 E.00525
G1 X51.225 Y186.104 E.0072
G1 X51.416 Y186.192 E.00759
G1 X51.646 Y186.234 E.00845
G1 X65.002 Y186.234 E.48222
G1 X65.106 Y186.281 E.00413
G1 X65.139 Y186.371 E.00344
G1 X65.139 Y188.968 E.09378
G1 X65.179 Y189.169 E.0074
G1 X65.235 Y189.306 E.00534
G1 X65.349 Y189.476 E.0074
G1 X65.464 Y189.591 E.00586
G1 X65.634 Y189.705 E.0074
G1 X65.771 Y189.761 E.00534
G1 X65.972 Y189.801 E.0074
G1 X76.678 Y189.801 E.38655
G1 X76.782 Y189.849 E.00413
G1 X76.813 Y189.959 E.00413
G1 X76.785 Y190.024 E.00255
G1 X76.381 Y190.532 E.02345
G1 X75.786 Y191.133 E.03055
G1 X75.139 Y191.655 E.03
G1 X74.438 Y192.102 E.03
G1 X73.695 Y192.469 E.02994
G1 X72.825 Y192.778 E.03333
G1 X71.964 Y192.979 E.03191
G1 X71.129 Y193.076 E.03035
G1 X70.671 Y193.09 E.01654
G1 X51.649 Y193.09 E.68683
G1 X50.796 Y193.042 E.03082
G1 X49.977 Y192.904 E.03
G1 X49.177 Y192.677 E.03
G1 X48.415 Y192.367 E.02973
G1 X47.911 Y192.107 E.02046
G1 X47.188 Y191.653 E.03083
G1 X46.538 Y191.136 E.03
G1 X45.948 Y190.55 E.03
G1 X45.436 Y189.916 E.02946
G1 X44.987 Y189.216 E.03
G1 X44.614 Y188.46 E.03045
G1 X44.285 Y187.523 E.03584
G1 X44.1 Y186.715 E.02995
G1 X44.006 Y185.894 E.02984
G1 X43.992 Y185.44 E.01639
G1 X43.992 Y79.121 E3.83876
G1 X44.038 Y78.276 E.03055
G1 X44.178 Y77.441 E.03055
G1 X44.404 Y76.642 E.03
G1 X44.714 Y75.879 E.02973
G1 X44.975 Y75.376 E.02046
G1 X45.429 Y74.653 E.03083
G1 X45.946 Y74.003 E.03
G1 X46.532 Y73.413 E.03
G1 X47.166 Y72.9 E.02946
G1 X47.866 Y72.452 E.03
G1 X48.623 Y72.078 E.03048
G1 X49.492 Y71.768 E.03333
G1 X50.353 Y71.567 E.03191
G1 X51.2 Y71.47 E.03077
G1 X51.646 Y71.456 E.01612
G1 X137.345 Y71.456 E3.09425
G1 X137.633 Y71.387 E.0107
G1 X137.806 Y71.284 E.00726
G1 X137.914 Y71.139 E.00654
G1 X137.989 Y70.985 E.0062
G1 X138.042 Y70.755 E.00851
G1 X138.042 Y19.587 E1.84747
G1 X138.06 Y19.046 E.01955
G1 X138.147 Y17.775 E.04601
G1 X138.293 Y16.713 E.0387
G1 X138.55 Y15.472 E.04574
G1 X138.84 Y14.436 E.03885
G1 X139.26 Y13.251 E.0454
G1 X139.688 Y12.263 E.03885
G1 X140.27 Y11.138 E.04574
G1 X140.833 Y10.21 E.03919
G1 X141.563 Y9.175 E.04574
G1 X142.242 Y8.34 E.03885
G1 X143.1 Y7.42 E.0454
G1 X143.892 Y6.679 E.03919
G1 X144.875 Y5.879 E.04574
G1 X145.754 Y5.258 E.03886
G1 X146.827 Y4.604 E.0454
G1 X147.782 Y4.108 E.03885
G1 X148.944 Y3.602 E.04574
G1 X149.966 Y3.238 E.03919
G1 X151.186 Y2.896 E.04574
G1 X152.239 Y2.676 E.03885
G1 X153.485 Y2.504 E.0454
G1 X154.573 Y2.429 E.0394
G1 X155.853 Y2.43 E.04622
G1 X156.927 Y2.504 E.03886
G1 X158.159 Y2.673 E.04491
G1 X159.217 Y2.892 E.03898
G1 X160.437 Y3.234 E.04574
G1 X161.451 Y3.593 E.03885
G1 X162.605 Y4.094 E.0454
G1 X163.569 Y4.592 E.03919
G1 X164.651 Y5.25 E.04574
G1 X165.531 Y5.87 E.03885
G1 X166.507 Y6.663 E.0454
G1 X167.294 Y7.397 E.03885
G1 X168.159 Y8.322 E.04574
G1 X168.845 Y9.163 E.03919
G1 X169.576 Y10.198 E.04574
G1 X170.135 Y11.117 E.03885
G1 X170.715 Y12.233 E.0454
G1 X171.148 Y13.228 E.03919
G1 X171.573 Y14.422 E.04574
G1 X171.863 Y15.458 E.03885
G1 X172.12 Y16.689 E.0454
G1 X172.269 Y17.764 E.03919
G1 X172.356 Y19.032 E.04591
G1 X172.375 Y19.581 E.01981
G1 X172.375 Y157.659 E4.98547
G1 X172.357 Y158.2 E.01956
G1 X172.27 Y159.472 E.04601
G1 X172.124 Y160.534 E.0387
G1 X171.867 Y161.774 E.04574
G1 X171.577 Y162.81 E.03885
G1 X171.153 Y164.004 E.04574
G1 X170.725 Y164.991 E.03885
G1 X170.143 Y166.116 E.04574
G1 X169.584 Y167.036 E.03885
G1 X168.854 Y168.071 E.04574
G1 X168.175 Y168.906 E.03885
G1 X167.311 Y169.832 E.04574
G1 X166.525 Y170.567 E.03885
G1 X165.543 Y171.367 E.04574
G1 X164.664 Y171.988 E.03885
G1 X163.582 Y172.647 E.04574
G1 X162.626 Y173.142 E.03885
G1 X161.465 Y173.647 E.04574
G1 X160.451 Y174.008 E.03885
G1 X159.231 Y174.351 E.04574
G1 X158.178 Y174.57 E.03885
G1 X156.923 Y174.743 E.04574
G1 X155.849 Y174.817 E.03885
G1 X154.592 Y174.818 E.0454
G1 X153.509 Y174.744 E.03919
