; HEADER_BLOCK_START
; generated by Creality_Print V6.0.1.1375 on 2025-01-17 at 04:17:47
; total layer number: 32
; filament_density: 1.24
; filament_diameter: 1.75
; max_z_height: 6.40
; HEADER_BLOCK_END

; THUMBNAIL_BLOCK_START

;
; THUMBNAIL_BLOCK_END

; THUMBNAIL_BLOCK_START

;
; THUMBNAIL_BLOCK_END

; external perimeters extrusion width = 0.42mm
; perimeters extrusion width = 0.45mm
; infill extrusion width = 0.45mm
; solid infill extrusion width = 0.42mm
; top infill extrusion width = 0.42mm
; support material extrusion width = 0.42mm
; first layer extrusion width = 0.50mm

; EXECUTABLE_BLOCK_START
EXCLUDE_OBJECT_DEFINE NAME=Link_7_v1.stl_id_0_copy_0 CENTER=110.277,151.155 POLYGON=[[10.277,151.155],[10.3943,149.664],[10.7432,148.211],[11.3152,146.83],[12.0961,145.556],[13.0668,144.419],[14.2034,143.449],[15.4778,142.668],[16.8586,142.096],[18.312,141.747],[19.802,141.63],[200.752,141.63],[202.242,141.747],[203.695,142.096],[205.076,142.668],[206.351,143.449],[207.487,144.419],[208.458,145.556],[209.239,146.83],[209.811,148.211],[210.16,149.664],[210.277,151.155],[210.16,152.645],[209.811,154.098],[209.239,155.479],[208.458,156.753],[207.487,157.89],[206.351,158.86],[205.076,159.641],[203.695,160.213],[202.242,160.562],[200.752,160.68],[19.802,160.68],[18.312,160.562],[16.8586,160.213],[15.4778,159.641],[14.2034,158.86],[13.0668,157.89],[12.0961,156.753],[11.3152,155.479],[10.7432,154.098],[10.3943,152.645],[10.277,151.155]]
M73 P0 R16
M106 S0
M106 P2 S0
;TYPE:Custom
M140 S0
M104 S0 
START_PRINT EXTRUDER_TEMP=220 BED_TEMP=50
T0
M204 S2000
G1 Z3 F600
M83
G92 E0
G1 Z1 F600
G90
G21
M83 ; use relative distances for extrusion
G1 E-.8 F2400
M106 S0
;LAYER_CHANGE
;Z:0.2
;HEIGHT:0.2
;BEFORE_LAYER_CHANGE
;0.2
G92 E0

;AFTER_LAYER_CHANGE
;0.2
;_SET_FAN_SPEED_CHANGING_LAYER
SET_VELOCITY_LIMIT ACCEL=1000 ACCEL_TO_DECEL=1000
SET_VELOCITY_LIMIT SQUARE_CORNER_VELOCITY=20
; printing object Link 7 v1.stl id:0 copy 0
EXCLUDE_OBJECT_START NAME=Link_7_v1.stl_id_0_copy_0
G1 Z.4 F30000
G1 X13.116 Y145.681
G1 Z.2
G1 E.8 F2400
;TYPE:Inner wall
;WIDTH:0.499999
G1 F3600
G1 X13.675 Y145.027 E.03104
G1 X14.709 Y144.144 E.04909
G1 X15.868 Y143.434 E.04909
G1 X17.124 Y142.913 E.04909
G1 X18.446 Y142.596 E.04909
G1 X19.836 Y142.487 E.05031
G1 X200.742 Y142.488 E6.53179
G1 X202.108 Y142.596 E.04946
G1 X203.43 Y142.913 E.0491
G1 X204.686 Y143.434 E.04909
G1 X205.845 Y144.144 E.04909
G1 X206.879 Y145.027 E.04909
G1 X207.762 Y146.061 E.04909
G1 X208.473 Y147.221 E.04909
G1 X208.993 Y148.477 E.04909
G3 X209.32 Y149.919 I-28.276 J7.166 E.0534
G1 X209.408 Y151.274 E.04901
G1 X209.311 Y152.51 E.04478
G1 X208.993 Y153.832 E.0491
G1 X208.473 Y155.088 E.04909
G1 X207.762 Y156.248 E.04909
G1 X206.879 Y157.282 E.04909
G1 X205.845 Y158.165 E.04909
G1 X204.686 Y158.875 E.04909
G1 X203.43 Y159.396 E.04909
G1 X202.108 Y159.713 E.0491
G1 X200.718 Y159.822 E.05031
G1 X19.836 Y159.822 E6.53094
G1 X18.446 Y159.713 E.05031
G1 X17.124 Y159.396 E.04909
G1 X15.868 Y158.875 E.0491
G1 X14.709 Y158.165 E.04909
G1 X13.675 Y157.282 E.04909
G1 X12.792 Y156.248 E.04909
G1 X12.081 Y155.088 E.04909
G1 X11.561 Y153.832 E.0491
G1 X11.243 Y152.51 E.04909
G1 X11.137 Y151.155 E.04909
G1 X11.243 Y149.799 E.04909
G1 X11.561 Y148.477 E.04909
G1 X12.081 Y147.221 E.04909
G1 X12.792 Y146.061 E.04909
G1 X13.09 Y145.711 E.01661
G1 X12.421 Y145.792 F30000
;TYPE:Outer wall
G1 F3600
G1 X13.351 Y144.703 E.05169
G1 X14.439 Y143.773 E.05169
G1 X15.66 Y143.025 E.05169
G1 X16.983 Y142.477 E.05169
G1 X18.375 Y142.143 E.05169
G1 X19.818 Y142.03 E.05226
G1 X200.76 Y142.031 E6.53309
M73 P1 R16
G1 X202.179 Y142.143 E.05141
M73 P1 R16
G1 X203.571 Y142.477 E.05169
G1 X204.894 Y143.025 E.05169
G1 X206.115 Y143.773 E.05169
G1 X207.203 Y144.703 E.05169
G1 X208.133 Y145.792 E.05169
G1 X208.881 Y147.012 E.05169
G1 X209.429 Y148.335 E.05169
G1 X209.763 Y149.727 E.05169
G3 X209.864 Y151.31 I-18.037 J1.936 E.05727
G1 X209.763 Y152.582 E.04607
G1 X209.429 Y153.974 E.05169
G1 X208.881 Y155.297 E.05169
G1 X208.133 Y156.517 E.05169
G1 X207.203 Y157.606 E.05169
G1 X206.115 Y158.536 E.05169
G1 X204.894 Y159.284 E.05169
G1 X203.571 Y159.832 E.05169
G1 X202.179 Y160.166 E.05169
G1 X200.736 Y160.28 E.05226
G1 X19.818 Y160.28 E6.53224
G1 X18.375 Y160.166 E.05226
G1 X16.983 Y159.832 E.05169
G1 X15.66 Y159.284 E.05169
G1 X14.439 Y158.536 E.05169
G1 X13.351 Y157.606 E.05169
G1 X12.421 Y156.517 E.05169
G1 X11.673 Y155.297 E.05169
G1 X11.125 Y153.974 E.05169
G1 X10.791 Y152.582 E.05169
G1 X10.678 Y151.155 E.05169
G1 X10.791 Y149.727 E.05169
G1 X11.125 Y148.335 E.05169
G1 X11.673 Y147.012 E.05169
G1 X12.4 Y145.826 E.05025
G1 E-.56 F2400
;WIPE_START
G1 F3600
G1 X13.351 Y144.703 E-.17655
G1 X13.753 Y144.36 E-.06345
;WIPE_END
G1 X21.384 Y144.505 Z.6 F30000
G1 X205.378 Y148.011 Z.6
G1 Z.2
G1 E.8 F2400
;TYPE:Inner wall
G1 F3600
G1 X205.779 Y148.649 E.02719
G3 X206.245 Y149.98 I-12.707 J5.194 E.05094
G1 X206.368 Y151.078 E.0399
G3 X206.21 Y152.479 I-11.485 J-.584 E.05095
G1 X205.82 Y153.595 E.04269
G1 X205.23 Y154.535 E.04007
G1 X205.095 Y154.716 E.00816
G1 X204.259 Y155.552 E.04269
G1 X203.258 Y156.181 E.04269
G3 X201.927 Y156.647 I-5.193 J-12.707 E.05094
G1 X200.752 Y156.78 E.04269
G1 X199.5 Y156.638 E.04548
G1 X198.311 Y156.222 E.04548
G1 X197.245 Y155.552 E.04548
G1 X196.354 Y154.662 E.04548
G1 X195.684 Y153.595 E.04548
G1 X195.268 Y152.406 E.04548
G1 X195.127 Y151.155 E.04548
G1 X195.268 Y149.903 E.04548
G1 X195.684 Y148.714 E.04548
G1 X196.354 Y147.647 E.04548
G1 X197.245 Y146.757 E.04548
G1 X198.311 Y146.087 E.04548
G1 X199.5 Y145.671 E.04548
G1 X200.675 Y145.538 E.04269
G3 X202.077 Y145.696 I-.584 J11.485 E.05095
G1 X203.193 Y146.087 E.04269
G1 X204.132 Y146.677 E.04006
G1 X204.314 Y146.811 E.00816
G1 X205.15 Y147.647 E.04269
G1 X205.357 Y147.977 E.01406
G1 X204.774 Y147.919 F30000
;TYPE:Outer wall
G1 F3600
G1 X204.79 Y147.934 E.00079
G1 X205.392 Y148.892 E.04083
G3 X205.79 Y150.031 I-27.683 J10.326 E.04358
G1 X205.914 Y151.129 E.0399
G3 X205.779 Y152.328 I-22.767 J-1.958 E.04358
G1 X205.406 Y153.396 E.04083
G1 X204.843 Y154.291 E.03821
G3 X203.972 Y155.193 I-14.304 J-12.942 E.04524
G1 X203.015 Y155.794 E.04083
G3 X201.876 Y156.193 I-10.324 J-27.677 E.04358
G1 X200.752 Y156.32 E.04083
G1 X199.603 Y156.19 E.04176
G1 X198.511 Y155.808 E.04176
G1 X197.532 Y155.193 E.04176
G1 X196.714 Y154.375 E.04176
G1 X196.098 Y153.396 E.04176
G1 X195.716 Y152.304 E.04176
G1 X195.587 Y151.155 E.04176
G1 X195.716 Y150.005 E.04176
G1 X196.098 Y148.913 E.04176
G1 X196.714 Y147.934 E.04176
G1 X197.532 Y147.116 E.04176
G1 X198.511 Y146.501 E.04176
G1 X199.603 Y146.119 E.04176
G1 X200.726 Y145.992 E.04083
G3 X201.926 Y146.127 I-1.958 J22.766 E.04358
G1 X202.993 Y146.501 E.04083
G1 X203.889 Y147.064 E.03821
G1 X204.746 Y147.891 E.04299
G1 E-.56 F2400
;WIPE_START
G1 F3600
G1 X204.79 Y147.934 E-.00744
G1 X205.392 Y148.892 E-.1357
G1 X205.658 Y149.654 E-.09686
;WIPE_END
G1 X198.026 Y149.735 Z.6 F30000
G1 X25.379 Y151.582 Z.6
G1 Z.2
G1 E.8 F2400
;TYPE:Inner wall
G1 F3600
G1 X25.286 Y152.406 E.02996
G1 X24.87 Y153.595 E.04548
G1 X24.2 Y154.662 E.04548
G1 X23.309 Y155.552 E.04548
G1 X22.243 Y156.222 E.04548
G1 X21.054 Y156.638 E.04548
G1 X19.879 Y156.771 E.04269
G3 X18.477 Y156.613 I.585 J-11.485 E.05095
G1 X17.361 Y156.222 E.04269
G1 X16.422 Y155.632 E.04007
G1 X16.24 Y155.498 E.00816
G1 X15.404 Y154.662 E.04269
G1 X14.775 Y153.661 E.04269
G3 X14.309 Y152.329 I12.708 J-5.193 E.05094
G1 X14.186 Y151.231 E.0399
G3 X14.344 Y149.83 I11.485 J.585 E.05095
G1 X14.734 Y148.714 E.04269
G1 X15.324 Y147.774 E.04006
G1 X15.459 Y147.593 E.00816
G1 X16.295 Y146.757 E.04269
G1 X17.296 Y146.128 E.04269
G3 X18.627 Y145.662 I5.193 J12.707 E.05094
G1 X19.802 Y145.53 E.04269
G1 X21.054 Y145.671 E.04548
G1 X22.243 Y146.087 E.04548
G1 X23.309 Y146.757 E.04548
G1 X24.2 Y147.647 E.04548
G1 X24.87 Y148.714 E.04548
G1 X25.286 Y149.903 E.04548
G1 X25.427 Y151.155 E.04548
G1 X25.383 Y151.542 E.01407
G1 X24.965 Y151.136 F30000
;TYPE:Outer wall
G1 F3600
G1 X24.967 Y151.155 E.00068
G1 X24.838 Y152.304 E.04176
G1 X24.456 Y153.396 E.04176
G1 X23.84 Y154.375 E.04176
G1 X23.022 Y155.193 E.04176
G1 X22.043 Y155.808 E.04176
G1 X20.951 Y156.19 E.04176
G1 X19.828 Y156.317 E.04083
G3 X18.628 Y156.182 I1.958 J-22.77 E.04358
G1 X17.561 Y155.808 E.04083
G1 X16.603 Y155.206 E.04083
G3 X15.764 Y154.375 I43.366 J-44.629 E.04267
G1 X15.162 Y153.417 E.04083
G3 X14.764 Y152.278 I27.681 J-10.325 E.04358
G1 X14.64 Y151.18 E.0399
G3 X14.775 Y149.981 I22.767 J1.958 E.04358
G1 X15.148 Y148.913 E.04083
G1 X15.711 Y148.018 E.0382
G3 X16.582 Y147.116 I14.301 J12.938 E.04524
G1 X17.539 Y146.515 E.04083
G3 X18.678 Y146.116 I10.326 J27.682 E.04358
G1 X19.802 Y145.989 E.04083
G1 X20.951 Y146.119 E.04176
G1 X22.043 Y146.501 E.04176
G1 X23.022 Y147.116 E.04176
G1 X23.84 Y147.934 E.04176
G1 X24.456 Y148.913 E.04176
G1 X24.838 Y150.005 E.04176
G1 X24.96 Y151.096 E.03964
G1 E-.56 F2400
;WIPE_START
G1 F3600
G1 X24.967 Y151.155 E-.00705
G1 X24.838 Y152.304 E-.13879
G1 X24.578 Y153.044 E-.09415
;WIPE_END
G1 X32.208 Y152.83 Z.6 F30000
G1 X208.596 Y147.877 Z.6
M73 P2 R16
G1 Z.2
M73 P2 R16
G1 E.8 F2400
;TYPE:Bottom surface
;WIDTH:0.500498
G1 F3600
G1 X204.409 Y143.69 E.21403
G1 X203.309 Y143.237 E.04302
G1 X208.67 Y148.598 E.27402
G1 X208.874 Y149.449 E.03165
G1 X202.457 Y143.032 E.328
G2 X201.684 Y142.906 I-.784 J2.378 E.02843
G1 X209 Y150.222 E.37396
G1 X209.055 Y150.925 E.02547
G1 X200.982 Y142.851 E.41269
G2 X200.315 Y142.831 I-.46 J4.229 E.02415
G1 X203.215 Y145.731 E.14823
G3 X203.403 Y145.815 I-.357 J1.057 E.00745
G1 X204.382 Y146.429 E.04176
G1 X204.552 Y146.564 E.00787
G1 X205.395 Y147.412 E.04322
G1 X206.071 Y148.47 E.04538
G3 X206.173 Y148.689 I-.712 J.462 E.00876
G1 X209.042 Y151.558 E.14665
G1 X208.994 Y152.158 E.02175
G1 X206.517 Y149.68 E.12666
G1 X206.564 Y149.817 E.00525
G1 X206.636 Y150.446 E.02288
G1 X208.908 Y152.719 E.11615
G1 X208.783 Y153.24 E.0194
G1 X206.714 Y151.172 E.10573
G1 X206.648 Y151.753 E.02114
G1 X208.653 Y153.758 E.10248
G1 X208.463 Y154.215 E.0179
G1 X206.582 Y152.334 E.09616
G1 X206.564 Y152.492 E.00573
G1 X206.443 Y152.842 E.0134
G1 X208.274 Y154.673 E.0936
G3 X208.06 Y155.106 I-1.474 J-.459 E.01753
G1 X206.276 Y153.322 E.09119
G3 X206.097 Y153.79 I-1.717 J-.389 E.01817
G1 X207.814 Y155.507 E.08778
G1 X207.568 Y155.909 E.01701
G1 X205.848 Y154.189 E.08792
G1 X205.596 Y154.583 E.01693
G1 X207.288 Y156.275 E.0865
G1 X206.99 Y156.624 E.01659
G1 X205.329 Y154.964 E.0849
G1 X205.006 Y155.288 E.01654
G1 X206.692 Y156.973 E.08616
G3 X206.352 Y157.281 I-1.141 J-.918 E.01663
G1 X204.683 Y155.612 E.08531
G3 X204.334 Y155.91 I-1.517 J-1.425 E.01663
G1 X206.003 Y157.579 E.08532
G1 X205.654 Y157.877 E.01659
G1 X203.937 Y156.16 E.08779
G1 X203.539 Y156.409 E.01696
G1 X205.255 Y158.125 E.08768
G1 X204.853 Y158.371 E.01701
G1 X203.1 Y156.617 E.08962
G1 X202.619 Y156.784 E.01839
G1 X204.441 Y158.606 E.09314
G1 X203.984 Y158.795 E.0179
G1 X202.138 Y156.95 E.09433
G1 X201.566 Y157.024 E.02087
G1 X203.526 Y158.985 E.10021
G3 X203.033 Y159.138 I-.732 J-1.481 E.01876
G1 X200.983 Y157.088 E.1048
G1 X200.713 Y157.118 E.00979
G1 X200.322 Y157.074 E.01424
G1 X202.511 Y159.264 E.11191
G1 X201.979 Y159.379 E.01966
G1 X199.594 Y156.994 E.12194
G3 X199.32 Y156.939 I.104 J-1.222 E.01011
G1 X198.661 Y156.708 E.02525
G1 X201.571 Y159.618 E.14875
G1 E-.56 F2400
;WIPE_START
G1 F3600
G1 X200.157 Y158.204 E-.24
;WIPE_END
G1 X201.596 Y150.708 Z.6 F30000
G1 X202.555 Y145.718 Z.6
G1 Z.2
G1 E.8 F2400
G1 F3600
G1 X199.668 Y142.831 E.14756
G1 X199.021 Y142.831 E.02339
G1 X201.453 Y145.264 E.12434
G1 X200.738 Y145.195 E.02598
G1 X198.374 Y142.831 E.12084
G1 X197.726 Y142.831 E.02339
G1 X200.148 Y145.253 E.12381
G1 X199.568 Y145.32 E.02113
G1 X197.079 Y142.831 E.1272
G1 X196.432 Y142.831 E.02339
G1 X199.068 Y145.467 E.13474
G1 X198.585 Y145.631 E.01844
G1 X195.785 Y142.831 E.14312
G1 X195.138 Y142.831 E.02339
G1 X198.117 Y145.811 E.1523
G2 X197.716 Y146.056 I.888 J1.905 E.01705
G1 X194.491 Y142.831 E.16485
G1 X193.844 Y142.831 E.02339
G1 X197.318 Y146.306 E.17761
G2 X196.941 Y146.576 I1.296 J2.209 E.01679
G1 X193.197 Y142.831 E.19141
G1 X192.549 Y142.831 E.02339
G1 X196.618 Y146.899 E.20795
G1 X196.294 Y147.223 E.01654
G1 X191.902 Y142.831 E.22449
G1 X191.255 Y142.831 E.02339
G1 X195.996 Y147.572 E.24236
G1 X195.747 Y147.97 E.01696
G1 X190.608 Y142.831 E.26267
G1 X189.961 Y142.831 E.02339
G1 X195.497 Y148.367 E.28299
G2 X195.289 Y148.807 I1.617 J1.034 E.01761
G1 X189.314 Y142.831 E.30545
G1 X188.667 Y142.831 E.02339
G1 X195.124 Y149.288 E.33006
G1 X194.958 Y149.769 E.0184
G1 X188.02 Y142.831 E.35467
G1 X187.372 Y142.831 E.02339
G1 X194.879 Y150.338 E.38374
G1 X194.814 Y150.92 E.02116
G1 X186.725 Y142.831 E.41348
G1 X186.078 Y142.831 E.02339
G1 X194.837 Y151.59 E.44771
G1 X194.919 Y152.318 E.02651
G1 X185.431 Y142.831 E.48497
G1 X184.784 Y142.831 E.02339
G1 X195.538 Y153.586 E.54974
G1 E-.56 F2400
;WIPE_START
G1 F3600
G1 X194.124 Y152.171 E-.24
;WIPE_END
G1 X199.272 Y157.806 Z.6 F30000
G1 X200.971 Y159.665 Z.6
G1 Z.2
G1 E.8 F2400
G1 F3600
G1 X184.137 Y142.831 E.86051
G1 X183.49 Y142.831 E.02339
G1 X200.138 Y159.48 E.85103
G1 X199.491 Y159.48 E.02339
G1 X182.843 Y142.831 E.85103
G1 X182.196 Y142.831 E.02339
G1 X198.844 Y159.48 E.85103
M73 P3 R16
G1 X198.197 Y159.48 E.02339
M73 P3 R16
G1 X181.548 Y142.831 E.85103
G1 X180.901 Y142.831 E.02339
G1 X197.55 Y159.48 E.85103
G1 X196.903 Y159.48 E.02339
G1 X180.254 Y142.831 E.85103
G1 X179.607 Y142.831 E.02339
G1 X196.256 Y159.48 E.85103
G1 X195.609 Y159.48 E.02339
G1 X178.96 Y142.831 E.85103
G1 X178.313 Y142.831 E.02339
G1 X194.961 Y159.48 E.85103
G1 X194.314 Y159.48 E.02339
G1 X177.666 Y142.831 E.85103
G1 X177.019 Y142.831 E.02339
G1 X193.667 Y159.48 E.85103
G1 X193.02 Y159.48 E.02339
G1 X176.371 Y142.831 E.85103
G1 X175.724 Y142.831 E.02339
G1 X192.373 Y159.48 E.85103
G1 X191.726 Y159.48 E.02339
G1 X175.077 Y142.831 E.85103
G1 X174.43 Y142.831 E.02339
G1 X191.079 Y159.48 E.85103
G1 X190.432 Y159.48 E.02339
G1 X173.783 Y142.831 E.85103
G1 X173.136 Y142.831 E.02339
G1 X189.785 Y159.48 E.85103
G1 X189.137 Y159.48 E.02339
G1 X172.489 Y142.831 E.85103
G1 X171.842 Y142.831 E.02339
G1 X188.49 Y159.48 E.85103
G1 X187.843 Y159.48 E.02339
G1 X171.194 Y142.831 E.85104
G1 X170.547 Y142.831 E.02339
G1 X187.196 Y159.48 E.85104
G1 X186.549 Y159.48 E.02339
G1 X169.9 Y142.831 E.85104
G1 X169.253 Y142.831 E.02339
G1 X185.902 Y159.48 E.85104
G1 X185.255 Y159.48 E.02339
G1 X168.606 Y142.831 E.85104
G1 X167.959 Y142.831 E.02339
G1 X184.608 Y159.48 E.85104
G1 X183.96 Y159.48 E.02339
G1 X167.312 Y142.831 E.85104
M73 P4 R16
G1 X166.665 Y142.831 E.02339
M73 P4 R16
G1 X183.313 Y159.48 E.85104
G1 X182.666 Y159.48 E.02339
G1 X166.018 Y142.831 E.85104
G1 X165.37 Y142.831 E.02339
G1 X182.019 Y159.48 E.85104
G1 X181.372 Y159.48 E.02339
G1 X164.723 Y142.831 E.85104
G1 X164.076 Y142.831 E.02339
G1 X180.725 Y159.48 E.85104
G1 X180.078 Y159.48 E.02339
G1 X163.429 Y142.831 E.85104
G1 X162.782 Y142.831 E.02339
G1 X179.431 Y159.48 E.85104
G1 X178.784 Y159.48 E.02339
G1 X162.135 Y142.831 E.85104
G1 X161.488 Y142.831 E.02339
G1 X178.136 Y159.48 E.85104
G1 X177.489 Y159.48 E.02339
G1 X160.841 Y142.831 E.85104
G1 X160.193 Y142.831 E.02339
G1 X176.842 Y159.48 E.85104
G1 X176.195 Y159.48 E.02339
G1 X159.546 Y142.831 E.85104
G1 X158.899 Y142.831 E.02339
G1 X175.548 Y159.48 E.85104
G1 X174.901 Y159.48 E.02339
G1 X158.252 Y142.831 E.85104
G1 X157.605 Y142.831 E.02339
G1 X174.254 Y159.48 E.85104
G1 X173.607 Y159.48 E.02339
G1 X156.958 Y142.831 E.85104
G1 X156.311 Y142.831 E.02339
G1 X172.96 Y159.48 E.85104
G1 X172.312 Y159.48 E.02339
G1 X155.664 Y142.831 E.85104
M73 P4 R15
G1 X155.017 Y142.831 E.02339
M73 P4 R15
G1 X171.665 Y159.48 E.85104
G1 X171.018 Y159.48 E.02339
G1 X154.369 Y142.831 E.85104
G1 X153.722 Y142.831 E.02339
G1 X170.371 Y159.48 E.85104
G1 X169.724 Y159.48 E.02339
G1 X153.075 Y142.831 E.85104
G1 X152.428 Y142.831 E.02339
G1 X169.077 Y159.48 E.85105
M73 P5 R15
G1 X168.43 Y159.48 E.02339
M73 P5 R15
G1 X151.781 Y142.831 E.85105
G1 X151.134 Y142.831 E.02339
G1 X167.783 Y159.48 E.85105
