; HEADER_BLOCK_START
; generated by Creality_Print V6.0.1.1375 on 2025-01-17 at 04:15:07
; total layer number: 32
; filament_density: 1.24
; filament_diameter: 1.75
; max_z_height: 6.40
; HEADER_BLOCK_END

; THUMBNAIL_BLOCK_START

;
; THUMBNAIL_BLOCK_END

; THUMBNAIL_BLOCK_START

;
; THUMBNAIL_BLOCK_END

; external perimeters extrusion width = 0.42mm
; perimeters extrusion width = 0.45mm
; infill extrusion width = 0.45mm
; solid infill extrusion width = 0.42mm
; top infill extrusion width = 0.42mm
; support material extrusion width = 0.42mm
; first layer extrusion width = 0.50mm

; external perimeters extrusion width = 0.42mm
; perimeters extrusion width = 0.45mm
; infill extrusion width = 0.45mm
; solid infill extrusion width = 0.42mm
; top infill extrusion width = 0.42mm
; support material extrusion width = 0.42mm
; first layer extrusion width = 0.50mm

; EXECUTABLE_BLOCK_START
EXCLUDE_OBJECT_DEFINE NAME=Link_2_v1.stl_id_0_copy_0 CENTER=110.311,168.627 POLYGON=[[10.3112,168.627],[10.4285,167.137],[10.7774,165.684],[11.3494,164.303],[12.1303,163.029],[13.101,161.892],[14.2375,160.921],[15.5119,160.14],[16.8928,159.568],[18.3462,159.22],[19.8362,159.102],[200.786,159.102],[202.276,159.22],[203.73,159.568],[205.11,160.14],[206.385,160.921],[207.521,161.892],[208.492,163.029],[209.273,164.303],[209.845,165.684],[210.194,167.137],[210.311,168.627],[210.194,170.117],[209.845,171.571],[209.273,172.952],[208.492,174.226],[207.521,175.362],[206.385,176.333],[205.11,177.114],[203.73,177.686],[202.276,178.035],[200.786,178.152],[19.8362,178.152],[18.3462,178.035],[16.8928,177.686],[15.5119,177.114],[14.2375,176.333],[13.101,175.362],[12.1303,174.226],[11.3494,172.952],[10.7774,171.571],[10.4285,170.117],[10.3112,168.627]]
EXCLUDE_OBJECT_DEFINE NAME=Link_3_v1.stl_id_1_copy_0 CENTER=110.835,129.632 POLYGON=[[10.8354,129.632],[10.9527,128.142],[11.3016,126.689],[11.8736,125.308],[12.6545,124.034],[13.6252,122.897],[14.7618,121.927],[16.0362,121.146],[17.4171,120.574],[18.8704,120.225],[20.3604,120.107],[201.31,120.107],[202.8,120.225],[204.254,120.574],[205.635,121.146],[206.909,121.927],[208.046,122.897],[209.016,124.034],[209.797,125.308],[210.369,126.689],[210.718,128.142],[210.835,129.632],[210.718,131.122],[210.369,132.576],[209.797,133.957],[209.016,135.231],[208.046,136.368],[206.909,137.338],[205.635,138.119],[204.254,138.691],[202.8,139.04],[201.31,139.157],[20.3604,139.157],[18.8704,139.04],[17.4171,138.691],[16.0362,138.119],[14.7618,137.338],[13.6252,136.368],[12.6545,135.231],[11.8736,133.957],[11.3016,132.576],[10.9527,131.122],[10.8354,129.632]]
M73 P0 R33
M106 S0
M106 P2 S0
;TYPE:Custom
M140 S0
M104 S0 
START_PRINT EXTRUDER_TEMP=220 BED_TEMP=50
T0
M204 S2000
G1 Z3 F600
M83
G92 E0
G1 Z1 F600
G90
G21
M83 ; use relative distances for extrusion
G1 E-.8 F2400
M106 S0
;LAYER_CHANGE
;Z:0.2
;HEIGHT:0.2
;BEFORE_LAYER_CHANGE
;0.2
G92 E0

;AFTER_LAYER_CHANGE
;0.2
;_SET_FAN_SPEED_CHANGING_LAYER
SET_VELOCITY_LIMIT ACCEL=1000 ACCEL_TO_DECEL=1000
SET_VELOCITY_LIMIT SQUARE_CORNER_VELOCITY=20
; printing object Link 2 v1.stl id:0 copy 0
EXCLUDE_OBJECT_START NAME=Link_2_v1.stl_id_0_copy_0
G1 Z.4 F30000
G1 X13.151 Y163.154
G1 Z.2
G1 E.8 F2400
;TYPE:Inner wall
;WIDTH:0.499999
G1 F3600
G1 X13.709 Y162.5 E.03104
G1 X14.743 Y161.617 E.04909
G1 X15.902 Y160.906 E.04909
G1 X17.158 Y160.386 E.0491
G1 X18.481 Y160.069 E.04909
G1 X19.87 Y159.959 E.05031
G1 X200.776 Y159.961 E6.53179
G1 X202.142 Y160.069 E.04946
G1 X203.464 Y160.386 E.0491
G1 X204.72 Y160.906 E.0491
G1 X205.88 Y161.617 E.04909
G1 X206.913 Y162.5 E.04909
G1 X207.797 Y163.534 E.04909
G1 X208.507 Y164.693 E.04909
G1 X209.027 Y165.95 E.04909
G3 X209.354 Y167.392 I-28.275 J7.166 E.0534
G1 X209.442 Y168.747 E.04901
G1 X209.345 Y169.983 E.04478
G1 X209.027 Y171.305 E.0491
G1 X208.507 Y172.561 E.04909
G1 X207.797 Y173.721 E.0491
G1 X206.913 Y174.755 E.04909
G1 X205.88 Y175.638 E.04909
G1 X204.72 Y176.348 E.04909
G1 X203.464 Y176.868 E.04909
G1 X202.142 Y177.186 E.0491
G1 X200.753 Y177.295 E.05031
G1 X19.87 Y177.295 E6.53094
G1 X18.481 Y177.186 E.05031
G1 X17.158 Y176.868 E.0491
G1 X15.902 Y176.348 E.04909
G1 X14.743 Y175.638 E.0491
G1 X13.709 Y174.755 E.04909
G1 X12.826 Y173.721 E.0491
G1 X12.115 Y172.561 E.04909
G1 X11.595 Y171.305 E.0491
G1 X11.278 Y169.983 E.04909
G1 X11.171 Y168.627 E.04909
G1 X11.278 Y167.272 E.04909
G1 X11.595 Y165.95 E.04909
G1 X12.115 Y164.693 E.04909
G1 X12.826 Y163.534 E.04909
G1 X13.125 Y163.184 E.01661
G1 X12.455 Y163.264 F30000
;TYPE:Outer wall
G1 F3600
G1 X13.385 Y162.176 E.05169
G1 X14.473 Y161.246 E.05169
G1 X15.694 Y160.498 E.05169
G1 X17.017 Y159.95 E.05169
G1 X18.409 Y159.616 E.05169
G1 X19.852 Y159.502 E.05226
G1 X200.794 Y159.504 E6.53309
G1 X202.213 Y159.616 E.05141
G1 X203.606 Y159.95 E.05169
G1 X204.928 Y160.498 E.05169
G1 X206.149 Y161.246 E.05169
G1 X207.238 Y162.176 E.05169
G1 X208.167 Y163.264 E.05169
G1 X208.916 Y164.485 E.05169
G1 X209.463 Y165.808 E.05169
G1 X209.798 Y167.2 E.05169
G3 X209.898 Y168.782 I-18.037 J1.936 E.05727
G1 X209.798 Y170.055 E.04607
G1 X209.463 Y171.447 E.05169
G1 X208.916 Y172.769 E.05169
G1 X208.167 Y173.99 E.05169
G1 X207.238 Y175.079 E.05169
G1 X206.149 Y176.009 E.05169
G1 X204.928 Y176.757 E.05169
G1 X203.606 Y177.304 E.05169
G1 X202.213 Y177.639 E.05169
G1 X200.77 Y177.752 E.05226
G1 X19.852 Y177.752 E6.53224
G1 X18.409 Y177.639 E.05226
G1 X17.017 Y177.304 E.05169
G1 X15.694 Y176.757 E.05169
G1 X14.473 Y176.009 E.05169
G1 X13.385 Y175.079 E.05169
G1 X12.455 Y173.99 E.05169
G1 X11.707 Y172.769 E.05169
G1 X11.159 Y171.447 E.05169
G1 X10.825 Y170.055 E.05169
G1 X10.712 Y168.627 E.05169
G1 X10.825 Y167.2 E.05169
G1 X11.159 Y165.808 E.05169
G1 X11.707 Y164.485 E.05169
G1 X12.434 Y163.299 E.05025
G1 E-.56 F2400
;WIPE_START
G1 F3600
G1 X13.385 Y162.176 E-.17655
G1 X13.787 Y161.832 E-.06345
;WIPE_END
G1 X21.418 Y161.978 Z.6 F30000
G1 X205.412 Y165.484 Z.6
G1 Z.2
G1 E.8 F2400
;TYPE:Inner wall
G1 F3600
G1 X205.813 Y166.121 E.02719
G3 X206.279 Y167.452 I-12.708 J5.194 E.05094
G1 X206.403 Y168.551 E.0399
G3 X206.245 Y169.952 I-11.485 J-.584 E.05095
G1 X205.854 Y171.068 E.04269
G1 X205.264 Y172.007 E.04007
G1 X205.129 Y172.189 E.00816
G1 X204.293 Y173.025 E.04269
G1 X203.292 Y173.654 E.04269
G3 X201.961 Y174.12 I-5.193 J-12.707 E.05094
G1 X200.786 Y174.252 E.04269
G1 X199.535 Y174.111 E.04548
G1 X198.346 Y173.695 E.04548
G1 X197.279 Y173.025 E.04548
G1 X196.388 Y172.134 E.04548
G1 X195.718 Y171.068 E.04548
G1 X195.302 Y169.879 E.04548
G1 X195.161 Y168.627 E.04548
G1 X195.302 Y167.376 E.04548
G1 X195.718 Y166.187 E.04548
G1 X196.388 Y165.12 E.04548
G1 X197.279 Y164.229 E.04548
G1 X198.346 Y163.559 E.04548
G1 X199.535 Y163.143 E.04548
G1 X200.709 Y163.011 E.04269
G3 X202.111 Y163.169 I-.584 J11.484 E.05095
G1 X203.227 Y163.559 E.04269
G1 X204.166 Y164.15 E.04006
G1 X204.348 Y164.284 E.00816
G1 X205.184 Y165.12 E.04269
G1 X205.391 Y165.45 E.01406
G1 X204.809 Y165.392 F30000
;TYPE:Outer wall
G1 F3600
G1 X204.824 Y165.407 E.00079
G1 X205.426 Y166.364 E.04083
G3 X205.825 Y167.504 I-27.685 J10.327 E.04358
G1 X205.948 Y168.602 E.0399
G3 X205.813 Y169.801 I-22.768 J-1.958 E.04358
G1 X205.44 Y170.868 E.04083
G1 X204.877 Y171.764 E.03821
G3 X204.007 Y172.665 I-14.304 J-12.942 E.04524
G1 X203.049 Y173.267 E.04083
G3 X201.91 Y173.666 I-10.325 J-27.679 E.04358
G1 X200.786 Y173.792 E.04083
G1 X199.637 Y173.663 E.04176
G1 X198.545 Y173.281 E.04176
G1 X197.566 Y172.665 E.04176
G1 X196.748 Y171.848 E.04176
G1 X196.133 Y170.868 E.04176
G1 X195.751 Y169.777 E.04176
G1 X195.621 Y168.627 E.04176
G1 X195.751 Y167.478 E.04176
G1 X196.133 Y166.386 E.04176
G1 X196.748 Y165.407 E.04176
G1 X197.566 Y164.589 E.04176
G1 X198.545 Y163.974 E.04176
G1 X199.637 Y163.592 E.04176
G1 X200.761 Y163.465 E.04083
G3 X201.96 Y163.6 I-1.958 J22.766 E.04358
G1 X203.027 Y163.974 E.04083
G1 X203.923 Y164.537 E.03821
G1 X204.78 Y165.364 E.04299
G1 E-.56 F2400
;WIPE_START
G1 F3600
G1 X204.824 Y165.407 E-.00744
G1 X205.426 Y166.364 E-.1357
G1 X205.693 Y167.126 E-.09686
;WIPE_END
G1 X198.061 Y167.214 Z.6 F30000
G1 X25.397 Y169.194 Z.6
G1 Z.2
G1 E.8 F2400
;TYPE:Inner wall
G1 F3600
G1 X25.32 Y169.879 E.02489
G1 X24.904 Y171.068 E.04548
G1 X24.234 Y172.134 E.04548
G1 X23.343 Y173.025 E.04548
G1 X22.277 Y173.695 E.04548
G1 X21.088 Y174.111 E.04548
G1 X19.913 Y174.244 E.04269
G3 X18.512 Y174.086 I.585 J-11.486 E.05095
G1 X17.396 Y173.695 E.04269
G1 X16.456 Y173.105 E.04007
G1 X16.274 Y172.97 E.00816
G1 X15.438 Y172.134 E.04269
G1 X14.809 Y171.133 E.04269
G3 X14.344 Y169.802 I12.708 J-5.193 E.05094
G1 X14.22 Y168.704 E.0399
G3 X14.378 Y167.303 I11.485 J.585 E.05095
G1 X14.768 Y166.187 E.04269
G1 X15.359 Y165.247 E.04006
G1 X15.493 Y165.066 E.00816
G1 X16.329 Y164.229 E.04269
G1 X17.33 Y163.6 E.04269
G3 X18.661 Y163.135 I5.193 J12.707 E.05094
G1 X19.836 Y163.002 E.04269
G1 X21.088 Y163.143 E.04548
G1 X22.277 Y163.559 E.04548
G1 X23.343 Y164.229 E.04548
G1 X24.234 Y165.12 E.04548
G1 X24.904 Y166.187 E.04548
G1 X25.32 Y167.376 E.04548
G1 X25.461 Y168.627 E.04548
G1 X25.402 Y169.154 E.01915
G1 X24.999 Y168.646 F30000
;TYPE:Outer wall
G1 F3600
G1 X24.872 Y169.777 E.04108
G1 X24.49 Y170.868 E.04176
G1 X23.874 Y171.848 E.04176
G1 X23.057 Y172.665 E.04176
G1 X22.077 Y173.281 E.04176
G1 X20.986 Y173.663 E.04176
G1 X19.862 Y173.789 E.04083
G3 X18.663 Y173.654 I1.958 J-22.767 E.04358
G1 X17.595 Y173.281 E.04083
G1 X16.638 Y172.679 E.04083
G3 X15.798 Y171.848 I43.36 J-44.622 E.04267
G1 X15.196 Y170.89 E.04083
G3 X14.798 Y169.751 I27.68 J-10.325 E.04358
G1 X14.674 Y168.653 E.0399
G3 X14.809 Y167.454 I22.767 J1.958 E.04358
G1 X15.183 Y166.386 E.04083
G1 X15.746 Y165.49 E.0382
G3 X16.616 Y164.589 I14.301 J12.938 E.04524
G1 X17.573 Y163.987 E.04083
G3 X18.712 Y163.589 I10.326 J27.682 E.04358
G1 X19.836 Y163.462 E.04083
G1 X20.986 Y163.592 E.04176
G1 X22.077 Y163.974 E.04176
G1 X23.057 Y164.589 E.04176
G1 X23.874 Y165.407 E.04176
G1 X24.49 Y166.386 E.04176
G1 X24.872 Y167.478 E.04176
G1 X24.999 Y168.606 E.04099
G1 E-.56 F2400
;WIPE_START
G1 F3600
G1 X24.872 Y169.777 E-.14128
G1 X24.6 Y170.553 E-.09872
;WIPE_END
G1 X32.229 Y170.337 Z.6 F30000
G1 X208.631 Y165.35 Z.6
M73 P1 R33
G1 Z.2
M73 P1 R33
G1 E.8 F2400
;TYPE:Bottom surface
;WIDTH:0.500498
G1 F3600
G1 X204.444 Y161.163 E.21403
G1 X203.343 Y160.71 E.04302
G1 X208.704 Y166.07 E.27402
G1 X208.908 Y166.922 E.03165
G1 X202.492 Y160.505 E.328
G2 X201.719 Y160.379 I-.784 J2.378 E.02843
G1 X209.034 Y167.695 E.37396
G1 X209.09 Y168.397 E.02547
G1 X201.016 Y160.324 E.41269
G2 X200.349 Y160.304 I-.46 J4.229 E.02415
G1 X203.249 Y163.204 E.14823
G3 X203.437 Y163.287 I-.357 J1.057 E.00745
G1 X204.416 Y163.902 E.04176
G1 X204.586 Y164.037 E.00787
G1 X205.429 Y164.885 E.04322
G1 X206.106 Y165.943 E.04538
G3 X206.207 Y166.162 I-.712 J.462 E.00876
G1 X209.076 Y169.031 E.14665
G1 X209.029 Y169.631 E.02175
G1 X206.551 Y167.153 E.12666
G1 X206.599 Y167.29 E.00525
G1 X206.67 Y167.919 E.02288
G1 X208.942 Y170.191 E.11615
G1 X208.817 Y170.713 E.0194
G1 X206.748 Y168.645 E.10573
G1 X206.682 Y169.226 E.02114
G1 X208.687 Y171.231 E.10248
G1 X208.498 Y171.688 E.0179
G1 X206.616 Y169.807 E.09616
G1 X206.599 Y169.964 E.00573
G1 X206.477 Y170.315 E.0134
G1 X208.308 Y172.146 E.0936
G3 X208.094 Y172.579 I-1.474 J-.459 E.01753
G1 X206.31 Y170.795 E.09119
G3 X206.131 Y171.263 I-1.716 J-.389 E.01817
G1 X207.848 Y172.98 E.08778
G1 X207.602 Y173.381 E.01701
G1 X205.882 Y171.661 E.08792
G1 X205.63 Y172.056 E.01693
G1 X207.322 Y173.748 E.0865
G1 X207.024 Y174.097 E.01659
G1 X205.363 Y172.436 E.0849
G1 X205.04 Y172.761 E.01654
G1 X206.726 Y174.446 E.08616
G3 X206.386 Y174.754 I-1.141 J-.918 E.01663
G1 X204.718 Y173.085 E.08531
G3 X204.368 Y173.383 I-1.517 J-1.425 E.01663
G1 X206.037 Y175.052 E.08532
G1 X205.688 Y175.35 E.01659
G1 X203.971 Y173.633 E.08779
G1 X203.574 Y173.882 E.01696
G1 X205.289 Y175.598 E.08768
G1 X204.888 Y175.843 E.01701
G1 X203.134 Y174.09 E.08962
G1 X202.653 Y174.256 E.01839
G1 X204.475 Y176.078 E.09314
G1 X204.018 Y176.268 E.0179
G1 X202.172 Y174.423 E.09433
G1 X201.6 Y174.497 E.02087
G1 X203.56 Y176.457 E.10021
G3 X203.067 Y176.611 I-.732 J-1.481 E.01876
G1 X201.017 Y174.561 E.1048
G1 X200.747 Y174.591 E.00979
G1 X200.356 Y174.547 E.01424
G1 X202.545 Y176.736 E.11191
G1 X202.014 Y176.852 E.01966
G1 X199.628 Y174.467 E.12194
G3 X199.354 Y174.411 I.104 J-1.222 E.01011
G1 X198.695 Y174.181 E.02525
G1 X201.605 Y177.091 E.14875
G1 E-.56 F2400
;WIPE_START
G1 F3600
G1 X200.191 Y175.676 E-.24
;WIPE_END
G1 X201.63 Y168.181 Z.6 F30000
G1 X202.589 Y163.191 Z.6
G1 Z.2
G1 E.8 F2400
G1 F3600
G1 X199.702 Y160.304 E.14756
G1 X199.055 Y160.304 E.02339
G1 X201.487 Y162.737 E.12434
G1 X200.772 Y162.668 E.02598
G1 X198.408 Y160.304 E.12084
G1 X197.761 Y160.304 E.02339
G1 X200.183 Y162.726 E.12381
G1 X199.602 Y162.792 E.02113
G1 X197.113 Y160.304 E.1272
G1 X196.466 Y160.304 E.02339
G1 X199.102 Y162.94 E.13474
G1 X198.619 Y163.104 E.01844
G1 X195.819 Y160.304 E.14312
G1 X195.172 Y160.304 E.02339
G1 X198.152 Y163.283 E.1523
G2 X197.75 Y163.529 I.888 J1.906 E.01705
G1 X194.525 Y160.304 E.16485
G1 X193.878 Y160.304 E.02339
G1 X197.352 Y163.779 E.17761
G2 X196.975 Y164.048 I1.296 J2.209 E.01679
G1 X193.231 Y160.304 E.19141
G1 X192.584 Y160.304 E.02339
G1 X196.652 Y164.372 E.20795
G1 X196.328 Y164.696 E.01654
G1 X191.937 Y160.304 E.22449
G1 X191.289 Y160.304 E.02339
G1 X196.031 Y165.045 E.24236
G1 X195.781 Y165.443 E.01696
G1 X190.642 Y160.304 E.26267
G1 X189.995 Y160.304 E.02339
G1 X195.531 Y165.84 E.28299
G2 X195.323 Y166.279 I1.617 J1.034 E.01761
G1 X189.348 Y160.304 E.30545
G1 X188.701 Y160.304 E.02339
G1 X195.158 Y166.761 E.33006
G1 X194.992 Y167.242 E.0184
G1 X188.054 Y160.304 E.35467
G1 X187.407 Y160.304 E.02339
G1 X194.914 Y167.811 E.38374
G1 X194.848 Y168.393 E.02116
G1 X186.76 Y160.304 E.41348
G1 X186.112 Y160.304 E.02339
G1 X194.871 Y169.062 E.44771
G1 X194.953 Y169.791 E.02651
G1 X185.465 Y160.304 E.48497
G1 X184.818 Y160.304 E.02339
G1 X195.573 Y171.058 E.54974
G1 E-.56 F2400
;WIPE_START
G1 F3600
G1 X194.158 Y169.644 E-.24
;WIPE_END
G1 X199.307 Y175.279 Z.6 F30000
G1 X201.005 Y177.138 Z.6
G1 Z.2
G1 E.8 F2400
G1 F3600
G1 X184.171 Y160.304 E.86051
G1 X183.524 Y160.304 E.02339
G1 X200.173 Y176.952 E.85103
G1 X199.525 Y176.952 E.02339
G1 X182.877 Y160.304 E.85103
G1 X182.23 Y160.304 E.02339
G1 X198.878 Y176.952 E.85103
G1 X198.231 Y176.952 E.02339
G1 X181.583 Y160.304 E.85103
G1 X180.935 Y160.304 E.02339
G1 X197.584 Y176.952 E.85103
G1 X196.937 Y176.952 E.02339
G1 X180.288 Y160.304 E.85103
G1 X179.641 Y160.304 E.02339
G1 X196.29 Y176.952 E.85103
G1 X195.643 Y176.952 E.02339
G1 X178.994 Y160.304 E.85103
G1 X178.347 Y160.304 E.02339
G1 X194.996 Y176.952 E.85103
G1 X194.348 Y176.952 E.02339
G1 X177.7 Y160.304 E.85103
G1 X177.053 Y160.304 E.02339
G1 X193.701 Y176.952 E.85103
G1 X193.054 Y176.952 E.02339
G1 X176.406 Y160.304 E.85103
G1 X175.759 Y160.304 E.02339
G1 X192.407 Y176.952 E.85103
G1 X191.76 Y176.952 E.02339
G1 X175.111 Y160.304 E.85103
G1 X174.464 Y160.304 E.02339
G1 X191.113 Y176.952 E.85103
G1 X190.466 Y176.952 E.02339
M73 P1 R32
G1 X173.817 Y160.304 E.85103
M73 P1 R32
G1 X173.17 Y160.304 E.02339
G1 X189.819 Y176.952 E.85103
G1 X189.172 Y176.952 E.02339
G1 X172.523 Y160.304 E.85103
G1 X171.876 Y160.304 E.02339
G1 X188.524 Y176.952 E.85103
G1 X187.877 Y176.952 E.02339
G1 X171.229 Y160.304 E.85104
G1 X170.582 Y160.304 E.02339
G1 X187.23 Y176.952 E.85104
G1 X186.583 Y176.952 E.02339
G1 X169.934 Y160.304 E.85104
G1 X169.287 Y160.304 E.02339
G1 X185.936 Y176.952 E.85104
G1 X185.289 Y176.952 E.02339
G1 X168.64 Y160.304 E.85104
G1 X167.993 Y160.304 E.02339
G1 X184.642 Y176.952 E.85104
G1 X183.995 Y176.952 E.02339
G1 X167.346 Y160.304 E.85104
M73 P2 R32
G1 X166.699 Y160.304 E.02339
M73 P2 R32
G1 X183.348 Y176.952 E.85104
G1 X182.7 Y176.952 E.02339
G1 X166.052 Y160.304 E.85104
G1 X165.405 Y160.304 E.02339
G1 X182.053 Y176.952 E.85104
G1 X181.406 Y176.952 E.02339
G1 X164.757 Y160.304 E.85104
G1 X164.11 Y160.304 E.02339
G1 X180.759 Y176.952 E.85104
G1 X180.112 Y176.952 E.02339
G1 X163.463 Y160.304 E.85104
G1 X162.816 Y160.304 E.02339
