; HEADER_BLOCK_START
; generated by Creality_Print V6.0.1.1375 on 2025-01-17 at 04:15:47
; total layer number: 297
; filament_density: 1.24
; filament_diameter: 1.75
; max_z_height: 43.20
; HEADER_BLOCK_END

; THUMBNAIL_BLOCK_START

;
; THUMBNAIL_BLOCK_END

; THUMBNAIL_BLOCK_START

;
; THUMBNAIL_BLOCK_END

; external perimeters extrusion width = 0.42mm
; perimeters extrusion width = 0.45mm
; infill extrusion width = 0.45mm
; solid infill extrusion width = 0.42mm
; top infill extrusion width = 0.42mm
; support material extrusion width = 0.42mm
; first layer extrusion width = 0.50mm

; EXECUTABLE_BLOCK_START
EXCLUDE_OBJECT_DEFINE NAME=Link_4_v1.stl_id_0_copy_0 CENTER=110.503,102.595 POLYGON=[[55.0836,13.5536],[73.7526,13.5536],[158.879,37.9472],[160.337,38.4478],[161.693,39.1815],[162.909,40.1285],[163.953,41.2627],[164.797,42.5533],[165.416,43.9652],[165.794,45.4597],[165.922,46.9961],[165.922,182.334],[165.794,183.87],[165.416,185.365],[164.797,186.777],[163.953,188.067],[162.909,189.202],[161.693,190.149],[160.337,190.882],[158.879,191.383],[157.358,191.637],[155.816,191.637],[154.296,191.383],[152.837,190.882],[151.482,190.149],[55.0836,124],[55.0836,13.5536]]
M73 P0 R48
M106 S0
M106 P2 S0
;TYPE:Custom
M140 S0
M104 S0 
START_PRINT EXTRUDER_TEMP=220 BED_TEMP=50
T0
M204 S2000
G1 Z3 F600
M83
G92 E0
G1 Z1 F600
G90
G21
M83 ; use relative distances for extrusion
G1 E-.8 F2400
M106 S0
;LAYER_CHANGE
;Z:0.2
;HEIGHT:0.2
;BEFORE_LAYER_CHANGE
;0.2
G92 E0

;AFTER_LAYER_CHANGE
;0.2
;_SET_FAN_SPEED_CHANGING_LAYER
SET_VELOCITY_LIMIT ACCEL=1000 ACCEL_TO_DECEL=1000
SET_VELOCITY_LIMIT SQUARE_CORNER_VELOCITY=20
; printing object Link 4 v1.stl id:0 copy 0
EXCLUDE_OBJECT_START NAME=Link_4_v1.stl_id_0_copy_0
G1 Z.4 F30000
G1 X47.179 Y11.804
G1 Z.2
G1 E.8 F2400
;TYPE:Brim
;WIDTH:0.5
G1 F3600
G1 X47.419 Y10.956 E.03183
G1 X47.751 Y10.137 E.03192
G1 X47.984 Y9.683 E.0184
G1 X48.501 Y8.85 E.03541
G1 X49.048 Y8.159 E.03181
G1 X49.669 Y7.533 E.03183
G1 X50.354 Y6.979 E.03183
G1 X51.097 Y6.504 E.03183
G1 X51.886 Y6.114 E.03179
G1 X52.873 Y5.767 E.03779
G1 X53.732 Y5.57 E.03181
G1 X54.611 Y5.469 E.03193
G1 X55.087 Y5.455 E.0172
G1 X73.746 Y5.455 E.67371
G1 X74.633 Y5.504 E.03205
G1 X75.502 Y5.649 E.03183
G1 X76.35 Y5.889 E.03183
G1 X77.169 Y6.221 E.03192
G1 X77.623 Y6.454 E.0184
G1 X78.457 Y6.971 E.03541
G1 X79.147 Y7.518 E.03181
G1 X79.773 Y8.139 E.03183
G1 X80.327 Y8.824 E.03183
G1 X80.802 Y9.567 E.03183
G1 X81.192 Y10.356 E.03179
G1 X81.54 Y11.343 E.03779
G1 X81.736 Y12.202 E.03181
G1 X81.837 Y13.081 E.03193
G1 X81.851 Y13.557 E.0172
G1 X81.851 Y97.003 E3.01291
G1 X81.9 Y97.144 E.00538
G1 X82.08 Y97.232 E.00722
G1 X138.925 Y97.232 E2.05245
G1 X139.066 Y97.183 E.00538
G1 X139.154 Y97.003 E.00722
G1 X139.154 Y47.001 E1.80539
G1 X139.181 Y46.333 E.02415
G1 X139.308 Y44.802 E.05545
G1 X139.527 Y43.485 E.04819
G1 X139.903 Y41.993 E.05558
G1 X140.337 Y40.725 E.04838
G1 X140.954 Y39.315 E.05558
G1 X141.591 Y38.136 E.04838
G1 X142.432 Y36.847 E.05557
G1 X143.254 Y35.789 E.04838
G1 X144.295 Y34.655 E.05557
G1 X145.28 Y33.747 E.04838
G1 X146.494 Y32.8 E.05557
G1 X147.615 Y32.067 E.04838
G1 X148.968 Y31.333 E.05558
G1 X150.195 Y30.794 E.04838
G1 X151.65 Y30.292 E.05558
G1 X152.949 Y29.962 E.04838
G1 X154.467 Y29.708 E.05558
G1 X155.802 Y29.596 E.04838
G1 X157.341 Y29.595 E.05558
G1 X158.677 Y29.704 E.04838
G1 X160.195 Y29.956 E.05558
G1 X161.495 Y30.284 E.04838
G1 X162.951 Y30.782 E.05558
G1 X164.178 Y31.32 E.04838
G1 X165.533 Y32.051 E.05558
G1 X166.655 Y32.783 E.04838
G1 X167.871 Y33.727 E.05558
G1 X168.857 Y34.634 E.04838
G1 X169.902 Y35.767 E.05564
G1 X170.578 Y36.606 E.03891
G1 X171.572 Y38.116 E.06526
G1 X172.206 Y39.288 E.04812
G1 X172.826 Y40.697 E.05558
G1 X173.262 Y41.964 E.04838
G1 X173.641 Y43.456 E.05558
G1 X173.863 Y44.777 E.04838
G1 X173.992 Y46.316 E.05574
G1 X174.02 Y46.993 E.02447
G1 X174.02 Y182.329 E4.88647
G1 X173.993 Y182.998 E.02415
G1 X173.866 Y184.528 E.05545
G1 X173.647 Y185.845 E.04819
G1 X173.271 Y187.337 E.05558
G1 X172.837 Y188.605 E.04838
G1 X172.22 Y190.015 E.05558
G1 X171.583 Y191.194 E.04838
G1 X170.742 Y192.483 E.05557
G1 X169.92 Y193.541 E.04838
G1 X168.879 Y194.675 E.05557
G1 X167.894 Y195.583 E.04838
G1 X166.68 Y196.53 E.05557
G1 X165.559 Y197.263 E.04838
G1 X164.206 Y197.997 E.05558
G1 X162.979 Y198.537 E.04838
G1 X161.524 Y199.038 E.05557
G1 X160.225 Y199.368 E.04838
G1 X158.707 Y199.622 E.05558
G1 X157.372 Y199.734 E.04838
G1 X155.833 Y199.736 E.05558
G1 X154.497 Y199.626 E.04838
G1 X152.977 Y199.374 E.05564
G1 X151.93 Y199.127 E.03885
G1 X150.216 Y198.545 E.06533
G1 X148.996 Y198.011 E.04811
G1 X147.641 Y197.279 E.05558
G1 X146.519 Y196.547 E.04838
G1 X145.304 Y195.603 E.05558
G1 X144.317 Y194.696 E.04838
G1 X143.273 Y193.565 E.05558
G1 X142.45 Y192.508 E.04838
G1 X141.607 Y191.22 E.05558
G1 X140.968 Y190.042 E.04838
G1 X140.348 Y188.633 E.05557
G1 X139.912 Y187.366 E.04838
G1 X139.533 Y185.875 E.05558
G1 X139.311 Y184.553 E.04838
G1 X139.182 Y183.015 E.05574
G1 X139.154 Y182.338 E.02447
G1 X139.154 Y132.327 E1.80568
G1 X139.105 Y132.186 E.00538
G1 X138.925 Y132.098 E.00722
G1 X55.09 Y132.098 E3.02696
G1 X54.203 Y132.05 E.03205
G1 X53.334 Y131.904 E.03183
G1 X52.486 Y131.664 E.03183
G1 X51.667 Y131.332 E.03192
G1 X51.213 Y131.099 E.0184
G1 X50.38 Y130.582 E.03541
G1 X49.689 Y130.035 E.03181
G1 X49.063 Y129.414 E.03183
G1 X48.51 Y128.729 E.03183
G1 X48.034 Y127.986 E.03183
G1 X47.644 Y127.197 E.0318
G1 X47.312 Y126.262 E.03581
G1 X47.1 Y125.351 E.03379
G1 X46.999 Y124.472 E.03192
G1 X46.985 Y123.996 E.0172
G1 X46.985 Y13.56 E3.98742
G1 X47.034 Y12.673 E.03205
G1 X47.172 Y11.843 E.03038
G1 X47.623 Y11.918 F30000
G1 F3600
G1 X47.624 Y11.912 E.00024
G1 X47.854 Y11.097 E.03055
G1 X48.165 Y10.333 E.0298
G1 X48.379 Y9.913 E.01702
G1 X48.871 Y9.12 E.0337
G1 X49.396 Y8.458 E.0305
G1 X49.982 Y7.868 E.03
G1 X50.616 Y7.356 E.02946
G1 X51.316 Y6.907 E.03
G1 X52.072 Y6.534 E.03045
G1 X53.008 Y6.205 E.03584
G1 X53.817 Y6.02 E.02995
G1 X54.638 Y5.926 E.02984
G1 X55.096 Y5.912 E.01654
G1 X73.737 Y5.912 E.67308
G1 X74.59 Y5.96 E.03082
G1 X75.409 Y6.097 E.03
G1 X76.209 Y6.324 E.03
G1 X76.973 Y6.635 E.0298
G1 X77.403 Y6.855 E.01742
G1 X78.187 Y7.341 E.03329
G1 X78.848 Y7.866 E.0305
G1 X79.438 Y8.452 E.03
G1 X79.951 Y9.086 E.02946
G1 X80.399 Y9.786 E.03
G1 X80.766 Y10.527 E.02985
G1 X81.102 Y11.478 E.03643
G1 X81.286 Y12.287 E.02995
G1 X81.38 Y13.108 E.02984
G1 X81.394 Y13.566 E.01654
G1 X81.394 Y96.992 E3.01218
G1 X81.463 Y97.28 E.0107
G1 X81.566 Y97.453 E.00726
G1 X81.712 Y97.561 E.00654
G1 X81.866 Y97.636 E.0062
G1 X82.096 Y97.689 E.00851
G1 X138.914 Y97.689 E2.05148
G1 X139.202 Y97.62 E.0107
G1 X139.375 Y97.517 E.00726
G1 X139.483 Y97.372 E.00654
G1 X139.558 Y97.217 E.0062
G1 X139.611 Y96.988 E.00851
G1 X139.611 Y47.013 E1.80438
G1 X139.637 Y46.364 E.02347
G1 X139.763 Y44.853 E.05474
G1 X139.976 Y43.574 E.04683
G1 X140.34 Y42.129 E.05381
G1 X140.766 Y40.886 E.04742
G1 X141.363 Y39.521 E.0538
G1 X141.982 Y38.375 E.04701
G1 X142.808 Y37.108 E.05462
G1 X143.607 Y36.08 E.04701
G1 X144.615 Y34.983 E.0538
G1 X145.581 Y34.092 E.04742
G1 X146.756 Y33.176 E.0538
G1 X147.855 Y32.457 E.04742
G1 X149.165 Y31.746 E.0538
G1 X150.356 Y31.222 E.04702
G1 X151.787 Y30.729 E.05462
G1 X153.049 Y30.409 E.04701
G1 X154.53 Y30.161 E.05421
G1 X155.827 Y30.053 E.04701
G1 X157.317 Y30.052 E.0538
G1 X158.626 Y30.159 E.04742
G1 X160.096 Y30.403 E.0538
G1 X161.37 Y30.724 E.04742
G1 X162.78 Y31.207 E.0538
G1 X163.973 Y31.728 E.04702
G1 X165.304 Y32.447 E.05462
G1 X166.394 Y33.159 E.04701
G1 X167.579 Y34.08 E.05421
G1 X168.538 Y34.962 E.04701
G1 X169.553 Y36.062 E.05404
G1 X170.212 Y36.881 E.03797
G1 X171.176 Y38.346 E.06331
G1 X171.798 Y39.494 E.04715
G1 X172.402 Y40.869 E.05422
G1 X172.825 Y42.1 E.04701
G1 X173.192 Y43.544 E.0538
G1 X173.41 Y44.84 E.04742
G1 X173.535 Y46.341 E.05441
G1 X173.563 Y47.005 E.02398
G1 X173.563 Y182.317 E4.88558
G1 X173.537 Y182.966 E.02347
G1 X173.413 Y184.466 E.05433
G1 X173.201 Y185.746 E.04683
G1 X172.831 Y187.212 E.05462
G1 X172.408 Y188.444 E.04701
G1 X171.806 Y189.819 E.05421
G1 X171.187 Y190.965 E.04701
G1 X170.373 Y192.213 E.0538
G1 X169.567 Y193.25 E.04742
G1 X168.559 Y194.347 E.0538
G1 X167.593 Y195.238 E.04742
G1 X166.418 Y196.154 E.0538
G1 X165.329 Y196.868 E.04701
G1 X163.999 Y197.589 E.05462
G1 X162.807 Y198.112 E.04701
G1 X161.398 Y198.597 E.0538
G1 X160.136 Y198.919 E.04701
G1 X158.656 Y199.168 E.05421
G1 X157.347 Y199.277 E.04742
G1 X155.857 Y199.278 E.0538
G1 X154.559 Y199.173 E.04702
G1 X153.071 Y198.926 E.05445
G1 X152.049 Y198.685 E.03791
G1 X150.376 Y198.116 E.0638
G1 X149.191 Y197.597 E.04672
G1 X147.88 Y196.889 E.05381
G1 X146.789 Y196.178 E.04701
G1 X145.603 Y195.257 E.05421
G1 X144.636 Y194.368 E.04742
G1 X143.626 Y193.273 E.0538
G1 X142.825 Y192.246 E.04701
G1 X142.002 Y190.99 E.05421
G1 X141.376 Y189.836 E.04742
G1 X140.772 Y188.461 E.05421
G1 X140.349 Y187.23 E.04701
G1 X139.98 Y185.775 E.05421
G1 X139.765 Y184.491 E.04701
G1 X139.639 Y182.989 E.05441
G1 X139.611 Y182.331 E.02378
G1 X139.611 Y132.338 E1.80503
G1 X139.542 Y132.05 E.0107
G1 X139.439 Y131.878 E.00726
G1 X139.294 Y131.769 E.00654
G1 X139.139 Y131.694 E.0062
G1 X138.91 Y131.641 E.00851
G1 X55.099 Y131.641 E3.02608
G1 X54.246 Y131.593 E.03082
G1 X53.442 Y131.459 E.02946
G1 X52.642 Y131.234 E.03
G1 X51.863 Y130.918 E.03035
G1 X51.443 Y130.704 E.01702
G1 X50.65 Y130.212 E.0337
G1 X49.988 Y129.687 E.0305
G1 X49.398 Y129.102 E.03
G1 X48.877 Y128.455 E.03
G1 X48.437 Y127.767 E.02946
G1 X48.069 Y127.025 E.0299
G1 X47.754 Y126.141 E.03391
G1 X47.553 Y125.28 E.03191
G1 X47.456 Y124.445 E.03035
G1 X47.442 Y123.987 E.01654
G1 X47.442 Y13.576 E3.98651
G1 X47.488 Y12.731 E.03055
G1 X47.617 Y11.958 E.02832
G1 X48.068 Y12.032 F30000
G1 F3600
G1 X48.07 Y12.019 E.00048
G1 X48.29 Y11.239 E.02926
G1 X48.579 Y10.529 E.02769
G1 X48.781 Y10.133 E.01604
G1 X49.251 Y9.377 E.03214
G1 X49.733 Y8.768 E.02805
G1 X50.283 Y8.214 E.02818
G1 X50.878 Y7.732 E.02765
G1 X51.535 Y7.31 E.02817
G1 X52.242 Y6.959 E.0285
G1 X53.128 Y6.647 E.03391
G1 X53.887 Y6.473 E.02812
G1 X54.665 Y6.383 E.0283
G1 X55.105 Y6.369 E.01587
G1 X73.721 Y6.369 E.67215
G1 X74.546 Y6.416 E.02986
G1 X75.316 Y6.546 E.02818
G1 X76.067 Y6.76 E.02819
G1 X76.777 Y7.049 E.02769
G1 X77.183 Y7.256 E.01644
G1 X77.916 Y7.711 E.03117
G1 X78.55 Y8.214 E.02918
G1 X79.103 Y8.764 E.02817
G1 X79.583 Y9.36 E.02765
G1 X79.997 Y10.005 E.02765
G1 X80.341 Y10.697 E.02791
G1 X80.664 Y11.613 E.03506
G1 X80.835 Y12.372 E.02808
G1 X80.923 Y13.135 E.02776
G1 X80.937 Y13.575 E.01588
G1 X80.937 Y96.978 E3.01136
G1 X81.017 Y97.379 E.01475
G1 X81.076 Y97.523 E.00562
G1 X81.167 Y97.675 E.0064
G1 X81.304 Y97.827 E.0074
G1 X81.43 Y97.921 E.00568
G1 X81.768 Y98.082 E.01351
G1 X82.108 Y98.146 E.0125
G1 X138.9 Y98.146 E2.05053
G1 X139.301 Y98.066 E.01475
G1 X139.445 Y98.007 E.00562
G1 X139.597 Y97.916 E.0064
G1 X139.747 Y97.781 E.00731
G1 X139.896 Y97.565 E.00946
G1 X140.005 Y97.311 E.00999
G1 X140.068 Y96.975 E.01234
G1 X140.068 Y47.025 E1.80348
M73 P1 R48
G1 X140.094 Y46.395 E.02278
M73 P1 R48
G1 X140.218 Y44.904 E.05402
G1 X140.425 Y43.662 E.04547
G1 X140.778 Y42.264 E.05204
G1 X141.194 Y41.047 E.04646
G1 X141.772 Y39.727 E.05203
G1 X142.372 Y38.614 E.04565
G1 X143.184 Y37.369 E.05366
G1 X143.96 Y36.371 E.04565
G1 X144.935 Y35.31 E.05203
G1 X145.881 Y34.438 E.04647
G1 X147.018 Y33.552 E.05203
G1 X148.094 Y32.847 E.04646
G1 X149.361 Y32.16 E.05203
G1 X150.518 Y31.65 E.04565
G1 X151.923 Y31.166 E.05366
G1 X153.149 Y30.856 E.04564
G1 X154.592 Y30.615 E.05284
G1 X155.852 Y30.51 E.04565
G1 X157.293 Y30.509 E.05203
G1 X158.576 Y30.614 E.04647
G1 X159.997 Y30.85 E.05203
G1 X161.245 Y31.165 E.04647
G1 X162.608 Y31.631 E.05203
G1 X163.767 Y32.137 E.04565
G1 X165.075 Y32.844 E.05366
G1 X166.133 Y33.535 E.04564
G1 X167.288 Y34.433 E.05284
G1 X168.218 Y35.29 E.04565
G1 X169.203 Y36.357 E.05244
G1 X169.846 Y37.156 E.03702
G1 X170.78 Y38.576 E.06136
G1 X171.389 Y39.7 E.04618
G1 X171.978 Y41.041 E.05285
G1 X172.388 Y42.236 E.04565
G1 X172.743 Y43.633 E.05203
G1 X172.956 Y44.902 E.04647
G1 X173.079 Y46.367 E.05307
G1 X173.106 Y47.017 E.0235
G1 X173.106 Y182.305 E4.88469
G1 X173.081 Y182.935 E.02278
G1 X172.958 Y184.415 E.05362
G1 X172.751 Y185.658 E.04547
G1 X172.393 Y187.077 E.05284
G1 X171.98 Y188.283 E.04606
G1 X171.397 Y189.614 E.05243
G1 X170.791 Y190.736 E.04606
G1 X170.004 Y191.943 E.05203
G1 X169.221 Y192.95 E.04606
G1 X168.239 Y194.02 E.05243
G1 X167.302 Y194.885 E.04606
G1 X166.157 Y195.779 E.05244
G1 X165.099 Y196.472 E.04564
G1 X163.793 Y197.18 E.05366
G1 X162.635 Y197.688 E.04565
G1 X161.273 Y198.157 E.05203
G1 X160.048 Y198.47 E.04565
G1 X158.604 Y198.713 E.05284
G1 X157.322 Y198.82 E.04647
G1 X155.881 Y198.821 E.05203
G1 X154.621 Y198.719 E.04565
G1 X153.166 Y198.478 E.05325
G1 X152.169 Y198.243 E.03696
G1 X150.537 Y197.688 E.06227
G1 X149.387 Y197.183 E.04533
G1 X148.119 Y196.498 E.05204
G1 X147.059 Y195.808 E.04565
G1 X145.903 Y194.911 E.05284
G1 X144.956 Y194.04 E.04647
G1 X143.979 Y192.981 E.05203
G1 X143.201 Y191.985 E.04565
G1 X142.398 Y190.761 E.05284
G1 X141.785 Y189.629 E.04646
G1 X141.197 Y188.289 E.05284
G1 X140.786 Y187.094 E.04565
G1 X140.426 Y185.675 E.05284
G1 X140.218 Y184.428 E.04565
G1 X140.095 Y182.963 E.05308
G1 X140.068 Y182.324 E.02309
G1 X140.068 Y132.352 E1.8043
G1 X139.988 Y131.952 E.01475
G1 X139.929 Y131.807 E.00562
G1 X139.838 Y131.655 E.0064
G1 X139.701 Y131.503 E.0074
G1 X139.575 Y131.409 E.00568
G1 X139.237 Y131.248 E.01351
G1 X138.897 Y131.184 E.0125
G1 X55.108 Y131.184 E3.02529
G1 X54.29 Y131.137 E.02959
G1 X53.534 Y131.01 E.02765
G1 X52.797 Y130.803 E.02765
G1 X52.058 Y130.504 E.02877
G1 X51.673 Y130.308 E.01563
G1 X50.92 Y129.842 E.03197
G1 X50.298 Y129.35 E.02863
G1 X49.734 Y128.789 E.02872
G1 X49.244 Y128.181 E.02819
G1 X48.832 Y127.535 E.02765
G1 X48.494 Y126.854 E.02747
G1 X48.195 Y126.019 E.03201
G1 X48.006 Y125.209 E.03004
G1 X47.913 Y124.417 E.02878
G1 X47.899 Y123.978 E.01587
G1 X47.899 Y13.593 E3.98559
G1 X47.943 Y12.789 E.02906
G1 X48.061 Y12.071 E.02625
G1 X48.512 Y12.145 F30000
G1 F3600
G1 X48.515 Y12.126 E.0007
G1 X48.726 Y11.381 E.02797
G1 X48.993 Y10.724 E.02559
G1 X49.182 Y10.353 E.01506
G1 X49.63 Y9.634 E.03057
G1 X50.081 Y9.066 E.02618
G1 X50.585 Y8.558 E.02583
G1 X51.141 Y8.107 E.02585
G1 X51.754 Y7.712 E.02634
G1 X52.413 Y7.385 E.02656
G1 X53.248 Y7.089 E.03199
G1 X53.957 Y6.926 E.02628
G1 X54.693 Y6.84 E.02677
G1 X55.114 Y6.826 E.0152
G1 X73.704 Y6.826 E.6712
G1 X74.503 Y6.872 E.02889
G1 X75.222 Y6.995 E.02635
G1 X75.925 Y7.196 E.02638
G1 X76.581 Y7.463 E.0256
G1 X76.963 Y7.658 E.01546
G1 X77.646 Y8.082 E.02905
G1 X78.251 Y8.561 E.02786
G1 X78.757 Y9.065 E.02579
G1 X79.207 Y9.622 E.02586
G1 X79.594 Y10.224 E.02585
G1 X79.915 Y10.868 E.02597
G1 X80.225 Y11.748 E.03368
G1 X80.385 Y12.456 E.02621
G1 X80.467 Y13.163 E.02571
G1 X80.48 Y13.584 E.01521
G1 X80.48 Y96.965 E3.01053
G1 X80.599 Y97.561 E.02196
G1 X80.767 Y97.898 E.01359
G1 X81.04 Y98.2 E.01469
G1 X81.243 Y98.338 E.00888
G1 X81.564 Y98.491 E.01281
G1 X81.691 Y98.532 E.00485
G1 X82.12 Y98.603 E.01568
G1 X138.887 Y98.603 E2.04963
G1 X139.483 Y98.485 E.02196
G1 X139.822 Y98.314 E.01368
G1 X140.049 Y98.124 E.01072
G1 X140.126 Y98.036 E.00422
G1 X140.32 Y97.736 E.01288
G1 X140.456 Y97.384 E.01362
G1 X140.525 Y96.964 E.01539
G1 X140.525 Y47.032 E1.80284
G1 X140.55 Y46.42 E.0221
G1 X140.671 Y44.966 E.05268
G1 X140.874 Y43.75 E.04452
G1 X141.215 Y42.4 E.05028
G1 X141.619 Y41.218 E.0451
G1 X142.186 Y39.922 E.05108
G1 X142.768 Y38.843 E.04428
G1 X143.56 Y37.63 E.05228
G1 X144.313 Y36.662 E.04428
G1 X145.255 Y35.637 E.05026
G1 X146.182 Y34.783 E.04551
G1 X147.279 Y33.927 E.05025
G1 X148.334 Y33.237 E.04551
G1 X149.557 Y32.573 E.05026
G1 X150.68 Y32.078 E.04428
G1 X152.059 Y31.603 E.05269
G1 X153.248 Y31.303 E.04427
G1 X154.654 Y31.068 E.05148
G1 X155.877 Y30.967 E.04429
G1 X157.269 Y30.966 E.05026
G1 X158.525 Y31.069 E.04551
G1 X159.898 Y31.297 E.05025
G1 X161.12 Y31.605 E.04551
G1 X162.437 Y32.056 E.05026
G1 X163.561 Y32.546 E.04428
G1 X164.845 Y33.24 E.05269
G1 X165.872 Y33.911 E.04427
